%
(Header)
(Generated by gcodetools from Inkscape.)
(Using default header. To add your own header create file "header" in the output dir.)
M3
(Header end.)
G21 (All units in mm)

(Pass at depth -1.0)
(Start cutting path id: path21)
(Change tool to Cylindrical cutter)

G00 Z5.000000
G00 X6.856098 Y0.391580

G01 Z-0.100000 F100.0(Penetrate)
G02 X6.332402 Y0.616250 Z-0.100000 I0.263787 J1.337567 F400.000000
G02 X5.731618 Y1.187320 Z-0.100000 I1.665438 J2.353653
G02 X5.970616 Y4.529530 Z-0.100000 I1.957376 J1.539680
G02 X9.327558 Y4.615380 Z-0.100000 I1.725867 J-1.810386
G02 X9.833882 Y3.897602 Z-0.100000 I-1.175644 J-1.366776
G02 X10.047868 Y2.748600 Z-0.100000 I-2.977798 J-1.149002
G02 X9.114080 Y0.898219 Z-0.100000 I-2.300238 J0.000000
G02 X6.856098 Y0.391580 Z-0.100000 I-1.703388 J2.306646
G01 X6.856098 Y0.391580 Z-0.100000
G00 Z5.000000

(Change tool to Cylindrical cutter)

G00 Z5.000000
G00 X9.408458 Y1.147900

G01 Z-0.100000 F100.0(Penetrate)
G03 X9.646420 Y1.564182 Z-0.100000 I-0.579813 J0.607597 F400.000000
G03 X9.783288 Y2.750060 Z-0.100000 I-5.069023 J1.185878
G03 X9.149016 Y4.336108 Z-0.100000 I-2.300159 J0.000000
G03 X7.669378 Y4.970380 Z-0.100000 I-1.479639 J-1.408726
G03 X5.682596 Y3.740912 Z-0.100000 I0.000000 J-2.220022
G03 X5.860968 Y1.343180 Z-0.100000 I2.103973 J-1.048982
G03 X7.487389 Y0.438994 Z-0.100000 I1.743422 J1.221141
G03 X9.408458 Y1.147900 Z-0.100000 I0.141672 J2.573493
G01 X9.408458 Y1.147900 Z-0.100000
G00 Z5.000000

(Change tool to Cylindrical cutter)

G00 Z5.000000
G00 X221.168590 Y0.391580

G01 Z-0.100000 F100.0(Penetrate)
G02 X220.644886 Y0.616254 Z-0.100000 I0.263776 J1.337550 F400.000000
G02 X220.044110 Y1.187320 Z-0.100000 I1.665478 J2.353674
G02 X220.283108 Y4.529530 Z-0.100000 I1.957376 J1.539680
G02 X223.640050 Y4.615380 Z-0.100000 I1.725867 J-1.810386
G02 X224.146374 Y3.897602 Z-0.100000 I-1.175643 J-1.366775
G02 X224.360360 Y2.748600 Z-0.100000 I-2.977801 J-1.149002
G02 X223.426572 Y0.898219 Z-0.100000 I-2.300238 J-0.000000
G02 X221.168590 Y0.391580 Z-0.100000 I-1.703388 J2.306646
G01 X221.168590 Y0.391580 Z-0.100000
G00 Z5.000000

(Change tool to Cylindrical cutter)

G00 Z5.000000
G00 X223.720950 Y1.147900

G01 Z-0.100000 F100.0(Penetrate)
G03 X223.958906 Y1.564178 Z-0.100000 I-0.579850 J0.607608 F400.000000
G03 X224.095780 Y2.750060 Z-0.100000 I-5.068826 J1.185882
G03 X223.461509 Y4.336108 Z-0.100000 I-2.300159 J0.000000
G03 X221.981870 Y4.970380 Z-0.100000 I-1.479639 J-1.408726
G03 X219.995085 Y3.740910 Z-0.100000 I0.000000 J-2.220027
G03 X220.173450 Y1.343180 Z-0.100000 I2.103977 J-1.048986
G03 X221.799884 Y0.438995 Z-0.100000 I1.743436 J1.221170
G03 X223.720950 Y1.147900 Z-0.100000 I0.141671 J2.573489
G01 X223.720950 Y1.147900 Z-0.100000
G00 Z5.000000

(Change tool to Cylindrical cutter)

G00 Z5.000000
G00 X21.598448 Y16.678200

G01 Z-0.100000 F100.0(Penetrate)
G02 X21.172940 Y17.565915 Z-0.100000 I4.186243 J2.552427 F400.000000
G02 X21.073168 Y18.133410 Z-0.100000 I1.579805 J0.570265
G03 X20.951359 Y18.678561 Z-0.100000 I-1.290680 J-0.002208
G03 X20.549708 Y19.251180 Z-0.100000 I-1.832203 J-0.857983
G02 X18.601533 Y21.908836 Z-0.100000 I7.652918 J7.652789
G02 X18.175148 Y23.815340 Z-0.100000 I3.374465 J1.755623
G01 X18.257582 Y23.836628 Z-0.100000
G02 X19.368628 Y21.837570 Z-0.100000 I-27.298818 J-16.480544
G03 X20.633441 Y19.660756 Z-0.100000 I20.417573 J10.407541
G01 X20.889768 Y19.522470 Z-0.100000
G01 X21.144296 Y19.660892 Z-0.100000
G03 X22.270628 Y21.655180 Z-0.100000 I-15.905244 J10.298160
G02 X23.294128 Y23.540895 Z-0.100000 I22.106237 J-10.777872
G01 X23.396528 Y23.529630 Z-0.100000
G02 X23.254423 Y21.491511 Z-0.100000 I-2.540749 J-0.846863
G02 X21.342378 Y19.393650 Z-0.100000 I-4.629526 J2.299195
G01 X21.152962 Y18.946476 Z-0.100000
G03 X21.908848 Y16.810490 Z-0.100000 I8.929034 J1.958082
G01 X21.832730 Y16.603103 Z-0.100000
G01 X21.598448 Y16.678200 Z-0.100000
G01 X21.598448 Y16.678200 Z-0.100000
G00 Z5.000000

(Change tool to Cylindrical cutter)

G00 Z5.000000
G00 X65.786758 Y17.348300

G01 Z-0.100000 F100.0(Penetrate)
G01 X65.786758 Y18.613720 Z-0.100000 F400.000000
G01 X63.986948 Y18.512030 Z-0.100000
G02 X62.269816 Y18.658508 Z-0.100000 I-0.344639 J6.097920
G02 X61.341118 Y19.122210 Z-0.100000 I0.497911 J2.159053
G02 X60.741460 Y19.948769 Z-0.100000 I1.362558 J1.619320
G02 X60.495088 Y21.216280 Z-0.100000 I3.137300 J1.267511
G02 X60.722257 Y22.501511 Z-0.100000 I3.749247 J0.000000
G02 X61.270558 Y23.341410 Z-0.100000 I2.080226 J-0.759089
G02 X62.141828 Y23.822087 Z-0.100000 I1.339696 J-1.398352
G02 X63.802218 Y23.972530 Z-0.100000 I1.314934 J-5.274683
G02 X65.471008 Y23.714491 Z-0.100000 I-0.598009 J-9.392675
G02 X65.796998 Y23.477530 Z-0.100000 I-0.129129 J-0.520360
G02 X65.917207 Y23.090573 Z-0.100000 I-0.679989 J-0.423391
G02 X66.019529 Y19.640960 Z-0.100000 I-108.790538 J-4.953255
G02 X66.009428 Y16.191052 Z-0.100000 I-103.066486 J-1.423189
G01 X65.899108 Y16.082880 Z-0.100000
G01 X65.840438 Y16.136572 Z-0.100000
G02 X65.786758 Y17.348300 Z-0.100000 I13.649469 J1.211728
G01 X65.786758 Y17.348300 Z-0.100000
G00 Z5.000000

(Change tool to Cylindrical cutter)

G00 Z5.000000
G00 X65.469258 Y19.046220

G01 Z-0.100000 F100.0(Penetrate)
G03 X65.655037 Y19.418275 Z-0.100000 I-0.464199 J0.464199 F400.000000
G03 X65.786758 Y21.285870 Z-0.100000 I-13.173868 J1.867595
G03 X65.071796 Y23.040834 Z-0.100000 I-2.511372 J0.000000
G03 X63.373808 Y23.755800 Z-0.100000 I-1.697988 J-1.658813
G03 X61.514365 Y23.001115 Z-0.100000 I-0.000000 J-2.668052
G03 X60.759678 Y21.215340 Z-0.100000 I1.735447 J-1.785775
G03 X60.983106 Y19.933984 Z-0.100000 I3.785999 J0.000000
G03 X61.456818 Y19.277090 Z-0.100000 I1.381182 J0.496772
G03 X63.772900 Y18.400022 Z-0.100000 I2.553317 J3.245986
G03 X65.469258 Y19.046220 Z-0.100000 I0.127454 J2.215102
G01 X65.469258 Y19.046220 Z-0.100000
G00 Z5.000000

(Change tool to Cylindrical cutter)

G00 Z5.000000
G00 X88.276338 Y17.348300

G01 Z-0.100000 F100.0(Penetrate)
G01 X88.276338 Y18.613720 Z-0.100000 F400.000000
G01 X86.476528 Y18.512030 Z-0.100000
G02 X84.759396 Y18.658508 Z-0.100000 I-0.344639 J6.097920
G02 X83.830698 Y19.122210 Z-0.100000 I0.497911 J2.159053
G02 X83.231045 Y19.948769 Z-0.100000 I1.362533 J1.619291
G02 X82.984678 Y21.216280 Z-0.100000 I3.137370 J1.267511
G02 X83.211844 Y22.501509 Z-0.100000 I3.749286 J0.000000
G02 X83.760148 Y23.341410 Z-0.100000 I2.080184 J-0.759063
G02 X84.631409 Y23.822086 Z-0.100000 I1.339679 J-1.398315
G02 X86.291798 Y23.972530 Z-0.100000 I1.314934 J-5.274665
G02 X87.960588 Y23.714491 Z-0.100000 I-0.598009 J-9.392675
G02 X88.286578 Y23.477530 Z-0.100000 I-0.129129 J-0.520360
G02 X88.406788 Y23.090573 Z-0.100000 I-0.679991 J-0.423392
G02 X88.509113 Y19.640960 Z-0.100000 I-108.788393 J-4.953301
G02 X88.499013 Y16.191056 Z-0.100000 I-103.063828 J-1.423224
G01 X88.388688 Y16.082880 Z-0.100000
G01 X88.330018 Y16.136572 Z-0.100000
G02 X88.276338 Y17.348300 Z-0.100000 I13.649469 J1.211728
G01 X88.276338 Y17.348300 Z-0.100000
G00 Z5.000000

(Change tool to Cylindrical cutter)

G00 Z5.000000
G00 X87.958838 Y19.046220

G01 Z-0.100000 F100.0(Penetrate)
G03 X88.144624 Y19.418280 Z-0.100000 I-0.464172 J0.464196 F400.000000
G03 X88.276338 Y21.285870 Z-0.100000 I-13.174500 J1.867590
G03 X87.561376 Y23.040834 Z-0.100000 I-2.511372 J0.000000
G03 X85.863388 Y23.755800 Z-0.100000 I-1.697988 J-1.658813
G03 X84.003949 Y23.001118 Z-0.100000 I0.000000 J-2.668052
G03 X83.249258 Y21.215340 Z-0.100000 I1.735444 J-1.785778
G03 X83.472689 Y19.933981 Z-0.100000 I3.785956 J-0.000000
G03 X83.946398 Y19.277090 Z-0.100000 I1.381203 J0.496787
G03 X86.262502 Y18.400022 Z-0.100000 I2.553343 J3.246061
G03 X87.958838 Y19.046220 Z-0.100000 I0.127451 J2.215054
G01 X87.958838 Y19.046220 Z-0.100000
G00 Z5.000000

(Change tool to Cylindrical cutter)

G00 Z5.000000
G00 X26.813898 Y19.179050

G01 Z-0.100000 F100.0(Penetrate)
G03 X27.225531 Y19.845617 Z-0.100000 I-1.079474 J1.127005 F400.000000
G03 X27.422178 Y21.148950 Z-0.100000 I-4.220785 J1.303333
G02 X27.633835 Y22.451195 Z-0.100000 I4.111940 J-0.000000
G02 X28.133138 Y23.278300 Z-0.100000 I2.091475 J-0.698312
G02 X29.580990 Y23.874675 Z-0.100000 I1.398724 J-1.340054
G02 X30.970538 Y23.206300 Z-0.100000 I-0.047637 J-1.877656
G02 X31.696826 Y21.144031 Z-0.100000 I-2.368926 J-1.993313
G02 X30.882138 Y19.237500 Z-0.100000 I-2.783282 J0.062007
G02 X29.640167 Y18.596984 Z-0.100000 I-1.623379 J1.623398
G02 X28.597248 Y18.852570 Z-0.100000 I-0.225197 J1.336694
G03 X27.561930 Y19.222046 Z-0.100000 I-1.104944 J-1.460910
G03 X26.636318 Y18.927170 Z-0.100000 I-0.054377 J-1.429493
G01 X26.614881 Y18.947749 Z-0.100000
G02 X26.813918 Y19.179060 Z-0.100000 I1.294671 J-0.912746
G01 X26.813898 Y19.179050 Z-0.100000
G00 Z5.000000

(Change tool to Cylindrical cutter)

G00 Z5.000000
G00 X30.741498 Y19.378150

G01 Z-0.100000 F100.0(Penetrate)
G03 X31.202142 Y20.105778 Z-0.100000 I-1.388912 J1.388912 F400.000000
G03 X31.390928 Y21.194550 Z-0.100000 I-3.045202 J1.088772
G03 X30.210311 Y23.356095 Z-0.100000 I-2.569052 J0.000000
G03 X28.299128 Y23.180520 Z-0.100000 I-0.843079 J-1.312523
G03 X27.889754 Y22.517409 Z-0.100000 I1.024241 J-1.090238
G03 X27.686758 Y21.125130 Z-0.100000 I4.673070 J-1.392279
G03 X27.931509 Y19.781277 Z-0.100000 I3.811716 J0.000000
G03 X28.414368 Y19.193920 Z-0.100000 I1.105127 J0.416356
G03 X29.677704 Y18.887437 Z-0.100000 I1.098776 J1.772197
G03 X30.741498 Y19.378150 Z-0.100000 I-0.133643 J1.688151
G01 X30.741498 Y19.378150 Z-0.100000
G00 Z5.000000

(Change tool to Cylindrical cutter)

G00 Z5.000000
G00 X34.698218 Y19.199100

G01 Z-0.100000 F100.0(Penetrate)
G03 X35.025993 Y19.905856 Z-0.100000 I-1.134046 J0.955326 F400.000000
G03 X35.375238 Y23.180590 Z-0.100000 I-26.122647 J4.441927
G01 X35.523098 Y26.533930 Z-0.100000
G01 X35.573698 Y23.296960 Z-0.100000
G02 X35.334752 Y20.175354 Z-0.100000 I-17.031217 J-0.266279
G02 X34.896678 Y19.315460 Z-0.100000 I-1.595506 J0.271297
G02 X34.717956 Y19.175715 Z-0.100000 I-0.610542 J0.596675
G01 X34.698238 Y19.199100 Z-0.100000
G01 X34.698218 Y19.199100 Z-0.100000
G00 Z5.000000

(Change tool to Cylindrical cutter)

G00 Z5.000000
G00 X40.881528 Y18.710160

G01 Z-0.100000 F100.0(Penetrate)
G03 X42.751114 Y19.485893 Z-0.100000 I-0.449632 J3.724454 F400.000000
G03 X43.297178 Y20.610110 Z-0.100000 I-0.884215 J1.124217
G01 X43.081431 Y20.894222 Z-0.100000
G03 X41.503968 Y21.109970 Z-0.100000 I-1.577463 J-5.659021
G02 X39.086250 Y21.661544 Z-0.100000 I0.000000 J5.574591
G02 X38.534678 Y22.539170 Z-0.100000 I0.422426 J0.877626
G02 X39.058427 Y23.496636 Z-0.100000 I1.137047 J0.000000
G02 X40.847098 Y24.020380 Z-0.100000 I1.788671 J-2.792430
G02 X42.080928 Y23.782175 Z-0.100000 I0.000000 J-3.314536
G02 X42.876778 Y23.206330 Z-0.100000 I-0.753987 J-1.879928
G02 X43.603072 Y21.144061 Z-0.100000 I-2.368903 J-1.993313
G02 X42.788378 Y19.237530 Z-0.100000 I-2.783269 J0.062007
G02 X41.925162 Y18.690262 Z-0.100000 I-1.653188 J1.653188
G02 X40.737858 Y18.501390 Z-0.100000 I-1.092981 J3.044483
G01 X39.460738 Y18.538690 Z-0.100000
G01 X40.881528 Y18.710160 Z-0.100000
G00 Z5.000000

(Change tool to Cylindrical cutter)

G00 Z5.000000
G00 X43.297178 Y21.868040

G01 Z-0.100000 F100.0(Penetrate)
G03 X43.196628 Y22.326713 Z-0.100000 I-1.096425 J0.000000 F400.000000
G03 X42.748808 Y23.058660 Z-0.100000 I-3.325454 J-1.531614
G03 X42.092114 Y23.532785 Z-0.100000 I-1.156039 J-0.909344
G03 X40.817348 Y23.755800 Z-0.100000 I-1.274766 J-3.531820
G03 X39.241705 Y23.313355 Z-0.100000 I-0.000000 J-3.026825
G03 X38.799258 Y22.525410 Z-0.100000 I0.480394 J-0.787945
G03 X39.251126 Y21.844648 Z-0.100000 I0.738735 J0.000000
G03 X41.511238 Y21.382600 Z-0.100000 I2.286630 J5.426369
G03 X43.083791 Y21.588918 Z-0.100000 I0.026297 J5.895703
G01 X43.297178 Y21.868040 Z-0.100000
G01 X43.297178 Y21.868040 Z-0.100000
G00 Z5.000000

(Change tool to Cylindrical cutter)

G00 Z5.000000
G00 X47.340578 Y19.965850

G01 Z-0.100000 F100.0(Penetrate)
G03 X48.545703 Y21.961428 Z-0.100000 I-4.229375 J3.915786 F400.000000
G01 X48.212268 Y22.432880 Z-0.100000
G02 X47.619454 Y22.565427 Z-0.100000 I0.000000 J1.391951
G02 X46.757058 Y23.117860 Z-0.100000 I1.685152 J3.580022
G02 X46.092599 Y24.507533 Z-0.100000 I1.201897 J1.428365
G02 X46.697958 Y25.967630 Z-0.100000 I1.965253 J0.040742
G02 X47.550939 Y26.432183 Z-0.100000 I1.281463 J-1.337566
G02 X49.409938 Y26.612450 Z-0.100000 I1.584430 J-6.663834
G01 X51.366928 Y26.533950 Z-0.100000
G01 X51.384228 Y22.565200 Z-0.100000
G02 X51.349957 Y20.514930 Z-0.100000 I-48.149390 J-0.220583
G01 X51.306528 Y20.514680 Z-0.100000
G01 X51.211528 Y22.432900 Z-0.100000
G01 X50.193468 Y22.432900 Z-0.100000
G03 X49.335812 Y22.226988 Z-0.100000 I0.000000 J-1.889091
G03 X49.025168 Y21.837590 Z-0.100000 I0.273535 J-0.536822
G02 X48.759654 Y21.309498 Z-0.100000 I-1.320509 J0.333132
G02 X47.351338 Y19.787070 Z-0.100000 I-12.993377 J10.606880
G01 X45.827758 Y18.331860 Z-0.100000
G01 X47.340608 Y19.965870 Z-0.100000
G01 X47.340578 Y19.965850 Z-0.100000
G00 Z5.000000

(Change tool to Cylindrical cutter)

G00 Z5.000000
G00 X51.234678 Y24.549550

G01 Z-0.100000 F100.0(Penetrate)
G01 X51.234678 Y26.401630 Z-0.100000 F400.000000
G01 X49.333498 Y26.401630 Z-0.100000
G03 X47.513751 Y26.196049 Z-0.100000 I-0.000000 J-8.156736
G03 X46.819958 Y25.826350 Z-0.100000 I0.335315 J-1.465119
G03 X46.270988 Y24.497940 Z-0.100000 I1.194184 J-1.271137
G03 X46.904758 Y23.245840 Z-0.100000 I1.661588 J0.054593
G03 X47.667248 Y22.886260 Z-0.100000 I1.163690 J1.479385
G03 X49.418298 Y22.697470 Z-0.100000 I1.751050 J8.026219
G01 X51.234698 Y22.697470 Z-0.100000
G01 X51.234678 Y24.549550 Z-0.100000
G00 Z5.000000

(Change tool to Cylindrical cutter)

G00 Z5.000000
G00 X77.229988 Y18.760150

G01 Z-0.100000 F100.0(Penetrate)
G01 X76.370088 Y19.008430 Z-0.100000 F400.000000
G01 X76.420088 Y21.448260 Z-0.100000
G01 X76.470088 Y23.888090 Z-0.100000
G01 X76.618528 Y21.517790 Z-0.100000
G03 X77.022906 Y19.355181 Z-0.100000 I8.999099 J0.563595
G03 X77.428428 Y18.964480 Z-0.100000 I0.563036 J0.178592
G03 X78.726404 Y18.869887 Z-0.100000 I0.885738 J3.201291
G03 X79.581928 Y19.233830 Z-0.100000 I-0.210389 J1.682075
G03 X79.995883 Y19.849324 Z-0.100000 I-0.792411 J0.979893
G03 X80.361168 Y21.813520 Z-0.100000 I-8.752249 J2.643734
G01 X80.515788 Y23.888090 Z-0.100000
G01 X80.559588 Y21.949510 Z-0.100000
G02 X80.338329 Y20.117087 Z-0.100000 I-6.483998 J-0.146649
G02 X79.830008 Y19.237530 Z-0.100000 I-1.900108 J0.511462
G02 X78.774337 Y18.683245 Z-0.100000 I-1.417743 J1.417743
G02 X77.229968 Y18.760150 Z-0.100000 I-0.608943 J3.316605
G01 X77.229988 Y18.760150 Z-0.100000
G00 Z5.000000

(Change tool to Cylindrical cutter)

G00 Z5.000000
G00 X101.735700 Y18.710150

G01 Z-0.100000 F100.0(Penetrate)
G03 X103.605286 Y19.485883 Z-0.100000 I-0.449632 J3.724454 F400.000000
G03 X104.151350 Y20.610100 Z-0.100000 I-0.884215 J1.124217
G01 X103.935603 Y20.894212 Z-0.100000
G03 X102.358140 Y21.109960 Z-0.100000 I-1.577463 J-5.659021
G02 X99.940420 Y21.661533 Z-0.100000 I0.000000 J5.574600
G02 X99.388848 Y22.539160 Z-0.100000 I0.422426 J0.877627
G02 X99.912598 Y23.496626 Z-0.100000 I1.137047 J0.000000
G02 X101.701270 Y24.020370 Z-0.100000 I1.788672 J-2.792437
G02 X102.935095 Y23.782165 Z-0.100000 I0.000000 J-3.314507
G02 X103.730950 Y23.206320 Z-0.100000 I-0.754008 J-1.879972
G02 X104.457244 Y21.144051 Z-0.100000 I-2.368903 J-1.993313
G02 X103.642550 Y19.237520 Z-0.100000 I-2.783269 J0.062007
G02 X102.779334 Y18.690252 Z-0.100000 I-1.653188 J1.653188
G02 X101.592030 Y18.501380 Z-0.100000 I-1.092981 J3.044483
G01 X100.314910 Y18.538680 Z-0.100000
G01 X101.735700 Y18.710150 Z-0.100000
G00 Z5.000000

(Change tool to Cylindrical cutter)

G00 Z5.000000
G00 X104.151350 Y21.868030

G01 Z-0.100000 F100.0(Penetrate)
G03 X104.050800 Y22.326703 Z-0.100000 I-1.096425 J0.000000 F400.000000
G03 X103.602980 Y23.058650 Z-0.100000 I-3.325454 J-1.531614
G03 X102.946286 Y23.532775 Z-0.100000 I-1.156039 J-0.909344
G03 X101.671520 Y23.755790 Z-0.100000 I-1.274766 J-3.531820
G03 X100.095876 Y23.313345 Z-0.100000 I-0.000000 J-3.026831
G03 X99.653428 Y22.525400 Z-0.100000 I0.480393 J-0.787945
G03 X100.105296 Y21.844638 Z-0.100000 I0.738736 J-0.000000
G03 X102.365410 Y21.382590 Z-0.100000 I2.286632 J5.426381
G03 X103.937963 Y21.588908 Z-0.100000 I0.026297 J5.895703
G01 X104.151350 Y21.868030 Z-0.100000
G01 X104.151350 Y21.868030 Z-0.100000
G00 Z5.000000

(Change tool to Cylindrical cutter)

G00 Z5.000000
G00 X115.449320 Y19.179040

G01 Z-0.100000 F100.0(Penetrate)
G03 X115.860953 Y19.845607 Z-0.100000 I-1.079474 J1.127005 F400.000000
G03 X116.057600 Y21.148940 Z-0.100000 I-4.220785 J1.303333
G02 X116.269257 Y22.451185 Z-0.100000 I4.111940 J0.000000
G02 X116.768560 Y23.278290 Z-0.100000 I2.091475 J-0.698312
G02 X118.216412 Y23.874665 Z-0.100000 I1.398724 J-1.340054
G02 X119.605950 Y23.206290 Z-0.100000 I-0.047637 J-1.877633
G02 X120.332244 Y21.144021 Z-0.100000 I-2.368903 J-1.993313
G02 X119.517550 Y19.237490 Z-0.100000 I-2.783269 J0.062007
G02 X118.275589 Y18.596974 Z-0.100000 I-1.623364 J1.623364
G02 X117.232670 Y18.852560 Z-0.100000 I-0.225197 J1.336693
G03 X116.197354 Y19.222035 Z-0.100000 I-1.104943 J-1.460907
G03 X115.271730 Y18.927160 Z-0.100000 I-0.054378 J-1.429526
G01 X115.250295 Y18.947738 Z-0.100000
G02 X115.449340 Y19.179050 Z-0.100000 I1.294885 J-0.912960
G01 X115.449320 Y19.179040 Z-0.100000
G00 Z5.000000

(Change tool to Cylindrical cutter)

G00 Z5.000000
G00 X119.376910 Y19.378140

G01 Z-0.100000 F100.0(Penetrate)
G03 X119.837562 Y20.105770 Z-0.100000 I-1.388888 J1.388916 F400.000000
G03 X120.026350 Y21.194540 Z-0.100000 I-3.045162 J1.088770
G03 X118.845733 Y23.356085 Z-0.100000 I-2.569052 J0.000000
G03 X116.934550 Y23.180510 Z-0.100000 I-0.843079 J-1.312523
G03 X116.525176 Y22.517399 Z-0.100000 I1.024241 J-1.090238
G03 X116.322180 Y21.125120 Z-0.100000 I4.673070 J-1.392279
G03 X116.566931 Y19.781267 Z-0.100000 I3.811716 J-0.000000
G03 X117.049790 Y19.193910 Z-0.100000 I1.105127 J0.416356
G03 X118.313126 Y18.887427 Z-0.100000 I1.098776 J1.772196
G03 X119.376910 Y19.378140 Z-0.100000 I-0.133641 J1.688123
G01 X119.376910 Y19.378140 Z-0.100000
G00 Z5.000000

(Change tool to Cylindrical cutter)

G00 Z5.000000
G00 X68.481108 Y20.605930

G01 Z-0.100000 F100.0(Penetrate)
G02 X68.627633 Y22.531687 Z-0.100000 I9.659873 J0.233462 F400.000000
G02 X68.916448 Y23.053330 Z-0.100000 I0.906853 J-0.161317
G02 X69.847389 Y23.473457 Z-0.100000 I1.117579 J-1.234913
G02 X70.765848 Y23.261890 Z-0.100000 I0.158938 J-1.409412
G03 X71.130341 Y23.181602 Z-0.100000 I0.292805 J0.461770
G03 X72.296328 Y23.464380 Z-0.100000 I-0.740338 J5.597918
G02 X73.308468 Y23.112874 Z-0.100000 I0.288091 J-0.803410
G02 X73.930938 Y20.845370 Z-0.100000 I-3.487225 J-2.176497
G01 X73.881138 Y18.596420 Z-0.100000
G01 X73.790938 Y20.843890 Z-0.100000
G03 X73.605115 Y23.049482 Z-0.100000 I-25.169989 J-1.009968
G01 X73.472278 Y23.319850 Z-0.100000
G01 X73.212615 Y23.417089 Z-0.100000
G03 X72.309008 Y23.239850 Z-0.100000 I0.253677 J-3.685327
G03 X71.578354 Y22.763489 Z-0.100000 I0.533725 J-1.617167
G03 X71.268658 Y22.086810 Z-0.100000 I0.920408 J-0.830453
G01 X71.163098 Y21.242280 Z-0.100000
G01 X71.120798 Y22.097140 Z-0.100000
G03 X70.878410 Y22.787828 Z-0.100000 I-1.286962 J-0.063767
G03 X70.376038 Y23.128280 Z-0.100000 I-0.717969 J-0.518560
G03 X69.414444 Y22.767527 Z-0.100000 I-0.219851 J-0.875934
G03 X68.679578 Y20.685760 Z-0.100000 I3.427261 J-2.380415
G01 X68.529658 Y18.596450 Z-0.100000
G01 X68.481108 Y20.605930 Z-0.100000
G00 Z5.000000

(Change tool to Cylindrical cutter)

G00 Z5.000000
G00 X96.213848 Y20.309410

G01 Z-0.100000 F100.0(Penetrate)
G03 X95.957423 Y21.734025 Z-0.100000 I-4.085559 J0.000000 F400.000000
G03 X95.485618 Y22.266700 Z-0.100000 I-0.925249 J-0.344235
G02 X94.800284 Y22.698986 Z-0.100000 I2.179452 J4.214638
G02 X94.253978 Y23.199540 Z-0.100000 I2.395913 J3.163304
G03 X93.108272 Y23.664343 Z-0.100000 I-1.054168 J-0.954007
G03 X91.598108 Y23.028190 Z-0.100000 I0.160796 J-2.492281
G01 X90.789888 Y22.300580 Z-0.100000
G01 X91.566988 Y23.160480 Z-0.100000
G02 X92.962364 Y23.798913 Z-0.100000 I1.438561 J-1.300057
G02 X94.534478 Y23.226580 Z-0.100000 I0.051336 J-2.304339
G03 X95.768728 Y22.734616 Z-0.100000 I1.309772 J1.491748
G01 X96.270918 Y23.160480 Z-0.100000
G01 X96.325292 Y23.159249 Z-0.100000
G02 X96.420788 Y21.308400 Z-0.100000 I-31.631522 J-2.559934
G02 X96.412414 Y18.793043 Z-0.100000 I-48.991447 J-1.094584
G01 X96.346188 Y18.728710 Z-0.100000
G01 X96.277246 Y18.792126 Z-0.100000
G02 X96.213888 Y20.309410 Z-0.100000 I18.136262 J1.517284
G01 X96.213848 Y20.309410 Z-0.100000
G00 Z5.000000

(Change tool to Cylindrical cutter)

G00 Z5.000000
G00 X107.408260 Y19.415160

G01 Z-0.100000 F100.0(Penetrate)
G01 X106.664890 Y20.103350 Z-0.100000 F400.000000
G01 X107.409380 Y19.563100 Z-0.100000
G03 X108.613868 Y19.713506 Z-0.100000 I0.521836 J0.719129
G03 X109.443010 Y22.004110 Z-0.100000 I-2.749463 J2.290604
G01 X109.443010 Y23.726800 Z-0.100000
G01 X108.186240 Y23.825900 Z-0.100000
G01 X106.929470 Y23.925000 Z-0.100000
G01 X108.171750 Y23.972700 Z-0.100000
G01 X109.414020 Y24.020400 Z-0.100000
G01 X109.513120 Y25.277180 Z-0.100000
G01 X109.612220 Y26.533950 Z-0.100000
G01 X109.659920 Y25.291670 Z-0.100000
G01 X109.707620 Y24.049400 Z-0.100000
G01 X110.964390 Y23.950300 Z-0.100000
G01 X112.221160 Y23.851200 Z-0.100000
G01 X110.964390 Y23.803500 Z-0.100000
G01 X109.707620 Y23.755800 Z-0.100000
G01 X109.707620 Y22.018620 Z-0.100000
G02 X109.330936 Y19.785344 Z-0.100000 I-6.808642 J0.000000
G02 X108.658990 Y18.998490 Z-0.100000 I-1.342548 J0.466154
G02 X108.181303 Y18.957837 Z-0.100000 I-0.286063 J0.534519
G02 X107.408280 Y19.415170 Z-0.100000 I0.672607 J2.018879
G01 X107.408260 Y19.415160 Z-0.100000
G00 Z5.000000

(Change tool to Cylindrical cutter)

G00 Z5.000000
G00 X124.115040 Y19.578450

G01 Z-0.100000 F100.0(Penetrate)
G03 X124.045569 Y20.219785 Z-0.100000 I-1.822498 J0.127011 F400.000000
G01 X123.871530 Y20.408540 Z-0.100000
G01 X123.700064 Y20.606051 Z-0.100000
G02 X123.116724 Y23.444820 Z-0.100000 I61.942510 J14.207927
G02 X122.663110 Y26.307485 Z-0.100000 I62.777099 J11.414842
G01 X122.751370 Y26.569000 Z-0.100000
G01 X122.824275 Y26.547065 Z-0.100000
G02 X123.348960 Y23.634260 Z-0.100000 I-64.007991 J-13.033453
G03 X124.000486 Y20.782626 Z-0.100000 I20.939332 J3.283858
G01 X124.272390 Y20.580790 Z-0.100000
G01 X124.600729 Y20.748124 Z-0.100000
G03 X125.185150 Y21.837560 Z-0.100000 I-3.695385 J2.683840
G02 X125.726253 Y23.050625 Z-0.100000 I9.888918 J-3.683863
G02 X126.120720 Y23.623500 Z-0.100000 I2.563483 J-1.342901
G03 X126.521534 Y24.187357 Z-0.100000 I-2.461611 J2.174209
G03 X126.716120 Y24.681830 Z-0.100000 I-1.688869 J0.950129
G01 X126.804183 Y24.760940 Z-0.100000
G01 X126.874820 Y24.702630 Z-0.100000
G03 X126.986208 Y24.227103 Z-0.100000 I1.443127 J0.087231
G03 X127.266180 Y23.776580 Z-0.100000 I1.570188 J0.663520
G02 X127.567088 Y23.323487 Z-0.100000 I-1.638137 J-1.414386
G02 X128.094440 Y22.105860 Z-0.100000 I-11.539088 J-5.720569
G03 X129.033530 Y20.566485 Z-0.100000 I4.458680 J1.663869
G01 X129.427910 Y20.640690 Z-0.100000
G03 X129.542391 Y21.033980 Z-0.100000 I-2.298950 J0.882496
G03 X130.064170 Y23.779350 Z-0.100000 I-112.492899 J22.802437
G02 X130.525698 Y26.063462 Z-0.100000 I48.345934 J-8.580104
G01 X130.581350 Y26.058900 Z-0.100000
G02 X130.253147 Y20.948098 Z-0.100000 I-20.708534 J-1.236090
G02 X129.489770 Y20.316180 Z-0.100000 I-0.763377 J0.145133
G01 X129.371254 Y20.209921 Z-0.100000
G03 X129.395670 Y19.456280 Z-0.100000 I2.660441 J-0.291024
G01 X129.546670 Y18.596390 Z-0.100000
G01 X129.212470 Y19.469510 Z-0.100000
G03 X128.819410 Y20.295808 Z-0.100000 I-5.452040 J-2.086834
G03 X128.603040 Y20.527840 Z-0.100000 I-0.608126 J-0.350180
G02 X128.391730 Y20.764727 Z-0.100000 I0.358076 J0.532105
G02 X127.718200 Y22.234410 Z-0.100000 I14.769610 J7.657828
G03 X127.006410 Y23.604730 Z-0.100000 I-7.327602 J-2.936176
G01 X126.727890 Y23.755760 Z-0.100000
G01 X126.444258 Y23.606948 Z-0.100000
G03 X125.677180 Y22.234410 Z-0.100000 I6.834380 J-4.720188
G02 X124.955174 Y20.746263 Z-0.100000 I-20.534417 J9.043487
G02 X124.657520 Y20.316180 Z-0.100000 I-1.981362 J1.053228
G03 X124.367386 Y19.888790 Z-0.100000 I1.544445 J-1.360623
G03 X124.186440 Y19.390140 Z-0.100000 I1.934963 J-0.984297
G01 X124.143242 Y19.387176 Z-0.100000
G01 X124.115040 Y19.578420 Z-0.100000
G01 X124.115040 Y19.578450 Z-0.100000
G00 Z5.000000

(Change tool to Cylindrical cutter)

G00 Z5.000000
G00 X212.386730 Y23.864890

G01 Z-0.100000 F100.0(Penetrate)
G02 X211.834797 Y24.308931 Z-0.100000 I1.005319 J1.814631 F400.000000
G02 X211.172420 Y25.244580 Z-0.100000 I4.078278 J3.589430
G01 X210.598780 Y26.269330 Z-0.100000
G01 X178.872460 Y26.401620 Z-0.100000
G02 X147.171543 Y26.650416 Z-0.100000 I17.987373 J4311.649810
G02 X146.616970 Y26.773430 Z-0.100000 I0.015944 J1.383452
G02 X146.101758 Y27.036189 Z-0.100000 I2.560375 J5.656809
G02 X145.776780 Y27.252490 Z-0.100000 I1.401313 J2.457661
G03 X145.432536 Y27.403023 Z-0.100000 I-0.474308 J-0.615779
G03 X143.792400 Y27.589300 Z-0.100000 I-2.510695 J-14.792570
G02 X140.865558 Y28.865602 Z-0.100000 I0.267853 J4.608345
G02 X139.709240 Y31.504150 Z-0.100000 I2.600482 J2.712283
G01 X139.673340 Y33.333870 Z-0.100000
G01 X137.456690 Y35.562100 Z-0.100000
G03 X135.143850 Y37.625982 Z-0.100000 I-18.502134 J-18.406117
G03 X134.313930 Y38.047630 Z-0.100000 I-1.459919 J-1.845945
G03 X133.372692 Y38.195455 Z-0.100000 I-1.109352 J-3.993073
G03 X127.434700 Y38.326910 Z-0.100000 I-6.532626 J-160.907433
G02 X121.514282 Y38.537191 Z-0.100000 I0.343925 J93.132190
G02 X120.158660 Y38.817380 Z-0.100000 I0.342115 J5.074744
G03 X118.834393 Y39.039873 Z-0.100000 I-1.295380 J-3.657805
G03 X117.405260 Y38.796880 Z-0.100000 I0.033665 J-4.522131
G02 X115.941255 Y38.509584 Z-0.100000 I-1.784702 J5.220700
G02 X109.006820 Y38.307880 Z-0.100000 I-6.934435 J119.099624
G01 X102.038870 Y38.307880 Z-0.100000
G01 X101.573760 Y37.322870 Z-0.100000
G02 X99.009686 Y35.673693 Z-0.100000 I-2.602910 J1.229052
G02 X96.413638 Y37.253270 Z-0.100000 I-0.038586 J2.859686
G01 X95.951948 Y38.175630 Z-0.100000
G01 X87.814678 Y38.316030 Z-0.100000
G02 X79.711921 Y38.611109 Z-0.100000 I3.652587 J211.695747
G02 X78.883658 Y38.812670 Z-0.100000 I0.129921 J2.336420
G03 X78.063853 Y39.056564 Z-0.100000 I-1.323425 J-2.948698
G03 X76.228188 Y39.231570 Z-0.100000 I-2.340992 J-14.840200
G02 X73.041480 Y40.395581 Z-0.100000 I0.183170 J5.445586
G02 X72.040828 Y42.527240 Z-0.100000 I1.623598 J2.062851
G02 X72.984140 Y44.670689 Z-0.100000 I3.090879 J-0.080970
G02 X75.179488 Y45.557510 Z-0.100000 I2.195348 J-2.273911
G02 X77.223308 Y44.520010 Z-0.100000 I0.000000 J-2.531858
G02 X78.345068 Y41.227980 Z-0.100000 I-4.705665 J-3.440592
G01 X78.395868 Y39.233970 Z-0.100000
G01 X79.565778 Y38.924530 Z-0.100000
G03 X80.753046 Y38.747023 Z-0.100000 I1.396098 J5.278581
G03 X88.206858 Y38.593800 Z-0.100000 I8.054146 J210.430033
G01 X95.678018 Y38.572500 Z-0.100000
G01 X96.338938 Y39.619460 Z-0.100000
G02 X97.603744 Y40.868434 Z-0.100000 I3.316417 J-2.093551
G02 X99.030058 Y41.271250 Z-0.100000 I1.426314 J-2.323778
G02 X100.563555 Y40.795994 Z-0.100000 I-0.000000 J-2.711674
G02 X101.622910 Y39.493350 Z-0.100000 I-1.677262 J-2.446082
G01 X102.007660 Y38.572500 Z-0.100000
G01 X108.943220 Y38.572500 Z-0.100000
G03 X115.850448 Y38.756537 Z-0.100000 I-0.000000 J129.711947
G03 X117.291090 Y39.017700 Z-0.100000 I-0.310062 J5.814442
G01 X118.703410 Y39.462900 Z-0.100000
G01 X118.703410 Y45.381200 Z-0.100000
G01 X118.703410 Y51.299510 Z-0.100000
G01 X117.782570 Y51.684260 Z-0.100000
G02 X116.014206 Y54.418211 Z-0.100000 I1.110150 J2.656942
G02 X117.924580 Y56.992590 Z-0.100000 I2.790374 J-0.074652
G02 X120.288343 Y56.693750 Z-0.100000 I0.869761 J-2.618229
G02 X121.521650 Y54.675580 Z-0.100000 I-1.472249 J-2.285617
G02 X121.167896 Y52.890604 Z-0.100000 I-3.122660 J-0.308681
G02 X119.953000 Y51.733450 Z-0.100000 I-2.353905 J1.255029
G01 X118.967990 Y51.268340 Z-0.100000
G01 X118.967990 Y45.365620 Z-0.100000
G01 X118.967990 Y39.462900 Z-0.100000
G01 X120.380310 Y39.017700 Z-0.100000
G03 X121.820014 Y38.750499 Z-0.100000 I1.810836 J5.744724
G03 X127.591950 Y38.572510 Z-0.100000 I5.771936 J93.498965
G02 X133.375356 Y38.459254 Z-0.100000 I0.000000 J-147.720505
G02 X134.308930 Y38.309330 Z-0.100000 I-0.154525 J-3.943877
G02 X135.132453 Y37.885953 Z-0.100000 I-0.656828 J-2.290234
G02 X137.521470 Y35.761890 Z-0.100000 I-17.642257 J-22.248478
G01 X139.816360 Y33.477630 Z-0.100000
G01 X141.646400 Y33.441730 Z-0.100000
G02 X144.282510 Y32.276765 Z-0.100000 I-0.073187 J-3.730618
G02 X145.557100 Y29.312110 Z-0.100000 I-3.396793 J-3.216697
G03 X145.899518 Y27.751788 Z-0.100000 I4.941240 J0.266640
G03 X146.398000 Y27.195440 Z-0.100000 I1.005554 J0.399474
G03 X147.194279 Y26.991167 Z-0.100000 I0.821699 J1.548942
G03 X178.692240 Y26.727200 Z-0.100000 I37.322753 J2574.169140
G01 X210.238360 Y26.655800 Z-0.100000
G01 X211.039810 Y27.762180 Z-0.100000
G02 X211.894217 Y28.814741 Z-0.100000 I9.996512 J-7.241516
G02 X212.396220 Y29.257260 Z-0.100000 I2.227281 J-2.020677
G02 X213.892206 Y29.743923 Z-0.100000 I1.544486 J-2.205063
G02 X215.665570 Y29.316160 Z-0.100000 I0.065216 J-3.619409
G02 X217.361615 Y26.543727 Z-0.100000 I-1.515826 J-2.832309
G02 X215.767120 Y23.868270 Z-0.100000 I-2.949603 J-0.054986
G02 X214.022536 Y23.442988 Z-0.100000 I-1.748282 J3.380832
G02 X212.386710 Y23.865270 Z-0.100000 I-0.003271 J3.366885
G01 X212.386730 Y23.864890 Z-0.100000
G00 Z5.000000

(Change tool to Cylindrical cutter)

G00 Z5.000000
G00 X216.090450 Y24.529190

G01 Z-0.100000 F100.0(Penetrate)
G03 X216.901341 Y26.472476 Z-0.100000 I-1.957785 J1.957767 F400.000000
G03 X216.111550 Y28.558210 Z-0.100000 I-3.106068 J0.016246
G03 X215.256191 Y29.170067 Z-0.100000 I-1.791566 J-1.600747
G03 X214.121530 Y29.400240 Z-0.100000 I-1.134661 J-2.681625
G03 X212.967457 Y29.192156 Z-0.100000 I-0.000000 J-3.304403
G03 X212.095750 Y28.645180 Z-0.100000 I0.888763 J-2.384507
G03 X211.398392 Y27.851388 Z-0.100000 I4.255129 J-4.441409
G01 X211.307640 Y27.575140 Z-0.100000
G02 X211.228420 Y27.297381 Z-0.100000 I-0.526545 J-0.000000
G02 X210.904090 Y26.925250 Z-0.100000 I-1.306388 J0.811179
G01 X210.738828 Y26.573331 Z-0.100000
G03 X210.904090 Y26.144420 Z-0.100000 I0.639214 J-0.000000
G02 X211.240604 Y25.672667 Z-0.100000 I-1.856802 J-1.680403
G02 X211.307640 Y25.412120 Z-0.100000 I-0.472810 J-0.260547
G01 X211.396697 Y25.167207 Z-0.100000
G03 X212.121690 Y24.440770 Z-0.100000 I4.532858 J3.798852
G03 X214.183963 Y23.714477 Z-0.100000 I1.993326 J2.368943
G03 X216.090490 Y24.529170 Z-0.100000 I-0.061997 J2.783236
G01 X216.090450 Y24.529190 Z-0.100000
G00 Z5.000000

(Change tool to Cylindrical cutter)

G00 Z5.000000
G00 X145.275760 Y29.047460

G01 Z-0.100000 F100.0(Penetrate)
G03 X144.867667 Y31.792187 Z-0.100000 I-10.522990 J-0.161885 F400.000000
G03 X144.243850 Y32.638340 Z-0.100000 I-1.451562 J-0.417120
G03 X141.810372 Y33.493556 Z-0.100000 I-2.948450 J-4.499896
G03 X140.271920 Y33.020320 Z-0.100000 I-0.200539 J-2.085372
G03 X139.451619 Y30.986839 Z-0.100000 I1.474946 J-1.777184
G03 X140.772450 Y28.537950 Z-0.100000 I3.695730 J0.412681
G03 X141.893492 Y28.002281 Z-0.100000 I1.622842 J1.955380
G03 X144.368010 Y27.813640 Z-0.100000 I2.002139 J9.939072
G03 X144.987253 Y28.145166 Z-0.100000 I-0.038016 J0.815099
G03 X145.275760 Y29.047460 Z-0.100000 I-1.195382 J0.879494
G01 X145.275760 Y29.047460 Z-0.100000
G00 Z5.000000

(Change tool to Cylindrical cutter)

G00 Z5.000000
G00 X100.422550 Y36.261250

G01 Z-0.100000 F100.0(Penetrate)
G03 X100.934984 Y36.695889 Z-0.100000 I-0.674995 J1.315206 F400.000000
G03 X101.401050 Y37.580730 Z-0.100000 I-2.630481 J1.950700
G03 X101.068590 Y39.928250 Z-0.100000 I-2.464507 J0.848274
G03 X98.991968 Y41.006630 Z-0.100000 I-2.076622 J-1.460271
G03 X97.563801 Y40.585702 Z-0.100000 I0.000000 J-2.633277
G03 X96.540728 Y39.424260 Z-0.100000 I1.543382 J-2.390827
G03 X96.318398 Y38.439732 Z-0.100000 I2.043397 J-0.978816
G03 X96.545728 Y37.436720 Z-0.100000 I2.352546 J0.005930
G03 X98.148703 Y36.056340 Z-0.100000 I2.361571 J1.121468
G03 X100.422440 Y36.261250 Z-0.100000 I0.883508 J2.913809
G01 X100.422550 Y36.261250 Z-0.100000
G00 Z5.000000

(Change tool to Cylindrical cutter)

G00 Z5.000000
G00 X77.806398 Y39.781980

G01 Z-0.100000 F100.0(Penetrate)
G03 X78.478561 Y41.826496 Z-0.100000 I-1.687557 J1.687557 F400.000000
G03 X77.077608 Y44.599790 Z-0.100000 I-4.918237 J-0.743991
G03 X76.320545 Y45.078194 Z-0.100000 I-1.439060 J-1.439060
G03 X75.178538 Y45.275240 Z-0.100000 I-1.142007 J-3.210802
G03 X74.045617 Y45.056294 Z-0.100000 I0.000000 J-3.040583
G03 X73.134038 Y44.454350 Z-0.100000 I1.015388 J-2.528911
G03 X72.532095 Y43.542772 Z-0.100000 I1.926958 J-1.926958
G03 X72.313148 Y42.409840 Z-0.100000 I2.821675 J-1.132932
G03 X72.511512 Y41.268391 Z-0.100000 I3.383317 J0.000000
G03 X72.996638 Y40.502730 Z-0.100000 I1.949445 J0.698658
G03 X75.761892 Y39.108247 Z-0.100000 I3.498473 J3.498473
G03 X77.806398 Y39.781980 Z-0.100000 I0.354249 J2.363990
G01 X77.806398 Y39.781980 Z-0.100000
G00 Z5.000000

(Change tool to Cylindrical cutter)

G00 Z5.000000
G00 X120.229530 Y52.096800

G01 Z-0.100000 F100.0(Penetrate)
G03 X121.036387 Y52.900176 Z-0.100000 I-0.483594 J1.292553 F400.000000
G03 X121.259770 Y54.814590 Z-0.100000 I-3.697710 J1.401707
G03 X120.704772 Y56.084289 Z-0.100000 I-2.468242 J-0.322746
G03 X119.616930 Y56.788380 Z-0.100000 I-1.673093 J-1.392561
G03 X117.296144 Y56.370050 Z-0.100000 I-0.727991 J-2.608023
G03 X116.269260 Y54.353270 Z-0.100000 I1.467017 J-2.016780
G03 X116.686481 Y52.859434 Z-0.100000 I2.882910 J-0.000000
G03 X117.722630 Y51.954360 Z-0.100000 I1.940060 J1.175383
G03 X118.712914 Y51.777677 Z-0.100000 I0.866877 J1.995182
G03 X120.229530 Y52.096800 Z-0.100000 I-0.292945 J5.155592
G01 X120.229530 Y52.096800 Z-0.100000
G00 Z5.000000

(Change tool to Cylindrical cutter)

G00 Z5.000000
G00 X227.091300 Y30.060480

G01 Z-0.100000 F100.0(Penetrate)
G02 X226.633319 Y31.139842 Z-0.100000 I1.324860 J1.198991 F400.000000
G02 X226.927310 Y32.504440 Z-0.100000 I2.526949 J0.169559
G02 X227.328183 Y32.799464 Z-0.100000 I0.509790 J-0.272831
G02 X229.374710 Y32.973860 Z-0.100000 I1.854717 J-9.669878
G02 X230.747977 Y32.888413 Z-0.100000 I-0.314412 J-16.131091
G01 X230.748640 Y32.829310 Z-0.100000
G03 X230.238084 Y32.496086 Z-0.100000 I0.088702 J-0.693647
G03 X230.050080 Y31.667820 Z-0.100000 I1.162918 J-0.699436
G02 X229.983134 Y30.664219 Z-0.100000 I-3.110683 J-0.296532
G02 X229.684170 Y30.092580 Z-0.100000 I-1.252179 J0.290885
G02 X228.373208 Y29.501147 Z-0.100000 I-1.333219 J1.206548
G02 X227.091300 Y30.060480 Z-0.100000 I-0.021049 J1.700396
G01 X227.091300 Y30.060480 Z-0.100000
G00 Z5.000000

(Change tool to Cylindrical cutter)

G00 Z5.000000
G00 X229.548510 Y30.219620

G01 Z-0.100000 F100.0(Penetrate)
G03 X229.739226 Y30.636891 Z-0.100000 I-0.676373 J0.561359 F400.000000
G03 X229.779350 Y31.608680 Z-0.100000 I-3.897377 J0.647642
G03 X229.413980 Y32.334146 Z-0.100000 I-1.079448 J-0.088908
G03 X228.531720 Y32.702640 Z-0.100000 I-0.989342 J-1.128301
G03 X227.441620 Y32.638591 Z-0.100000 I-0.300223 J-4.198930
G01 X227.146710 Y32.438060 Z-0.100000
G03 X226.800665 Y31.153285 Z-0.100000 I1.888789 J-1.197721
G03 X227.235510 Y30.158710 Z-0.100000 I1.487327 J0.057936
G03 X228.436761 Y29.679560 Z-0.100000 I1.158141 J1.158141
G03 X229.548520 Y30.219610 Z-0.100000 I-0.039374 J1.495428
G01 X229.548510 Y30.219620 Z-0.100000
G00 Z5.000000

(Change tool to Cylindrical cutter)

G00 Z5.000000
G00 X227.270000 Y34.757550

G01 Z-0.100000 F100.0(Penetrate)
G02 X227.164733 Y35.186913 Z-0.100000 I1.643111 J0.630428 F400.000000
G02 X227.079860 Y36.411200 Z-0.100000 I13.466131 J1.548616
G01 X227.050260 Y37.646420 Z-0.100000
G01 X228.440820 Y37.669420 Z-0.100000
G01 X229.831380 Y37.692420 Z-0.100000
G01 X228.506970 Y37.589460 Z-0.100000
G03 X227.453934 Y37.132253 Z-0.100000 I0.136480 J-1.755616
G01 X227.385040 Y36.561630 Z-0.100000
G03 X227.616683 Y36.317318 Z-0.100000 I0.827790 J0.552894
G03 X227.976300 Y36.119500 Z-0.100000 I0.885852 J1.184618
G01 X228.028258 Y36.023328 Z-0.100000
G01 X227.938500 Y35.947540 Z-0.100000
G03 X227.384957 Y35.592669 Z-0.100000 I0.031632 J-0.658497
G03 X227.409850 Y34.928700 Z-0.100000 I0.597552 J-0.310048
G01 X227.652598 Y34.744665 Z-0.100000
G03 X228.774430 Y34.535900 Z-0.100000 I1.641505 J5.702341
G01 X229.960710 Y34.431600 Z-0.100000
G01 X228.695640 Y34.385400 Z-0.100000
G02 X227.544672 Y34.511856 Z-0.100000 I-0.145281 J3.978805
G01 X227.270000 Y34.757610 Z-0.100000
G01 X227.270000 Y34.757550 Z-0.100000
G00 Z5.000000

(Change tool to Cylindrical cutter)

G00 Z5.000000
G00 X228.240920 Y39.343190

G01 Z-0.100000 F100.0(Penetrate)
G03 X229.493566 Y39.708172 Z-0.100000 I-0.392767 J3.680081 F400.000000
G03 X229.782580 Y40.108380 Z-0.100000 I-0.235543 J0.474561
G03 X229.429311 Y41.000228 Z-0.100000 I-0.959134 J0.135969
G03 X228.010080 Y41.529100 Z-0.100000 I-1.510337 J-1.884303
G01 X226.785710 Y41.575300 Z-0.100000
G01 X227.937230 Y41.677910 Z-0.100000
G02 X229.556035 Y41.283050 Z-0.100000 I0.229441 J-2.575094
G02 X230.093000 Y40.304140 Z-0.100000 I-0.623815 J-0.978910
G02 X229.653242 Y39.535288 Z-0.100000 I-0.891992 J-0.000000
G02 X228.121860 Y39.144730 Z-0.100000 I-1.439765 J2.447774
G01 X226.785710 Y39.187830 Z-0.100000
G01 X228.240920 Y39.343190 Z-0.100000
G00 Z5.000000

(Change tool to Cylindrical cutter)

G00 Z5.000000
G00 X37.730628 Y39.752880

G01 Z-0.100000 F100.0(Penetrate)
G02 X37.006993 Y40.405797 Z-0.100000 I0.996863 J1.832300 F400.000000
G02 X36.318018 Y41.813610 Z-0.100000 I4.449334 J3.049972
G01 X36.015049 Y42.064385 Z-0.100000
G03 X32.521958 Y42.276640 Z-0.100000 I-3.493091 J-28.636930
G02 X28.888604 Y42.381333 Z-0.100000 I0.000000 J63.099626
G02 X27.955538 Y42.540020 Z-0.100000 I0.246336 J4.270962
G02 X27.133553 Y42.967342 Z-0.100000 I0.642369 J2.239880
G02 X24.496508 Y45.334540 Z-0.100000 I21.426326 J26.521224
G01 X21.955838 Y47.865680 Z-0.100000
G01 X20.155018 Y47.930780 Z-0.100000
G02 X18.467144 Y48.230666 Z-0.100000 I0.222047 J6.149709
G02 X17.728818 Y48.722890 Z-0.100000 I0.511779 J1.567508
G02 X17.306846 Y49.525392 Z-0.100000 I1.531908 J1.317700
G02 X17.103428 Y51.094680 Z-0.100000 I5.951498 J1.569288
G01 X17.103428 Y52.739410 Z-0.100000
G01 X14.920618 Y54.894770 Z-0.100000
G03 X12.629051 Y56.865193 Z-0.100000 I-15.426609 J-15.623139
G03 X11.581398 Y57.387770 Z-0.100000 I-1.971079 J-2.640136
G03 X10.528671 Y57.421345 Z-0.100000 I-0.591514 J-2.025934
G03 X9.905688 Y57.012500 Z-0.100000 I0.230844 J-1.030813
G02 X9.261938 Y56.544204 Z-0.100000 I-1.047056 J0.762733
G02 X7.729658 Y56.299600 Z-0.100000 I-1.532280 J4.677048
G02 X5.753232 Y56.961485 Z-0.100000 I0.000000 J3.281803
G02 X5.091348 Y58.289900 Z-0.100000 I1.002136 J1.328415
G02 X5.798902 Y59.825382 Z-0.100000 I2.019873 J0.000000
G02 X7.715828 Y60.532940 Z-0.100000 I1.916926 J-2.242904
G02 X9.330062 Y60.021885 Z-0.100000 I0.000000 J-2.804913
G02 X10.187588 Y58.793520 Z-0.100000 I-1.263638 J-1.795653
G03 X10.560831 Y58.220833 Z-0.100000 I1.061600 J0.283914
G03 X11.622278 Y57.640610 Z-0.100000 I2.155693 J2.682574
G02 X12.748587 Y57.045872 Z-0.100000 I-1.253561 J-3.737846
G02 X15.053188 Y55.042830 Z-0.100000 I-13.677516 J-18.063976
G01 X17.246768 Y52.860020 Z-0.100000
G01 X18.880138 Y52.860020 Z-0.100000
G02 X20.438240 Y52.657111 Z-0.100000 I-0.000000 J-6.083660
G02 X21.240558 Y52.234630 Z-0.100000 I-0.518901 J-1.958492
G02 X21.732788 Y51.496305 Z-0.100000 I-1.075346 J-1.250160
G02 X22.032658 Y49.808680 Z-0.100000 I-5.848787 J-1.909710
G01 X22.097658 Y48.008110 Z-0.100000
G01 X24.561458 Y45.533650 Z-0.100000
G03 X27.123540 Y43.227157 Z-0.100000 I22.379371 J22.283052
G03 X27.951298 Y42.801700 Z-0.100000 I1.444408 J1.792240
G03 X28.891292 Y42.646261 Z-0.100000 I1.191505 J4.285497
G03 X32.523668 Y42.542750 Z-0.100000 I3.658509 J64.598271
G03 X36.014994 Y42.753610 Z-0.100000 I0.008906 J28.861851
G01 X36.317968 Y43.004290 Z-0.100000
G02 X37.572380 Y44.875912 Z-0.100000 I3.867817 J-1.236135
G02 X39.342398 Y45.547630 Z-0.100000 I1.845155 J-2.194185
G02 X42.001003 Y44.089320 Z-0.100000 I0.078904 J-3.008723
G02 X42.187288 Y40.814080 Z-0.100000 I-3.019357 J-1.814649
G02 X40.456876 Y39.390236 Z-0.100000 I-2.321262 J1.057636
G02 X37.730588 Y39.752930 Z-0.100000 I-0.889999 J3.737864
G01 X37.730628 Y39.752880 Z-0.100000
G00 Z5.000000

(Change tool to Cylindrical cutter)

G00 Z5.000000
G00 X41.465448 Y40.404200

G01 Z-0.100000 F100.0(Penetrate)
G03 X42.276343 Y42.347485 Z-0.100000 I-1.957766 J1.957766 F400.000000
G03 X41.486548 Y44.433230 Z-0.100000 I-3.106083 J0.016246
G03 X40.630750 Y45.044082 Z-0.100000 I-1.783112 J-1.593214
G03 X39.485208 Y45.275250 Z-0.100000 I-1.145542 J-2.722758
G03 X38.327815 Y45.054123 Z-0.100000 I0.000000 J-3.139499
G03 X37.415338 Y44.454360 Z-0.100000 I0.993893 J-2.506104
G03 X36.815575 Y43.541878 Z-0.100000 I1.906405 J-1.906405
G03 X36.594448 Y42.384490 Z-0.100000 I2.918343 J-1.157388
G03 X36.825616 Y41.238948 Z-0.100000 I2.953925 J0.000000
G03 X37.436468 Y40.383150 Z-0.100000 I2.204066 J0.927313
G03 X39.522206 Y39.593325 Z-0.100000 I2.069492 J2.316153
G03 X41.465498 Y40.404250 Z-0.100000 I-0.014481 J2.768608
G01 X41.465448 Y40.404200 Z-0.100000
G00 Z5.000000

(Change tool to Cylindrical cutter)

G00 Z5.000000
G00 X21.705358 Y49.929680

G01 Z-0.100000 F100.0(Penetrate)
G03 X20.886028 Y51.807410 Z-0.100000 I-2.662961 J-0.044340 F400.000000
G03 X18.926198 Y52.595390 Z-0.100000 I-1.959830 J-2.043213
G01 X17.368008 Y52.595390 Z-0.100000
G01 X17.368008 Y51.066760 Z-0.100000
G03 X18.272053 Y49.029470 Z-0.100000 I2.747567 J0.000000
G03 X20.543008 Y48.193730 Z-0.100000 I2.173007 J2.401407
G01 X21.733638 Y48.229730 Z-0.100000
G01 X21.705358 Y49.929680 Z-0.100000
G00 Z5.000000

(Change tool to Cylindrical cutter)

G00 Z5.000000
G00 X9.320828 Y56.766620

G01 Z-0.100000 F100.0(Penetrate)
G03 X10.105763 Y58.287284 Z-0.100000 I-1.001705 J1.479975 F400.000000
G03 X9.248628 Y59.937570 Z-0.100000 I-2.109765 J-0.048048
G03 X7.653639 Y60.418275 Z-0.100000 I-1.471021 J-1.994426
G03 X5.967338 Y59.773230 Z-0.100000 I0.145617 J-2.907399
G03 X5.211284 Y58.264646 Z-0.100000 I1.286181 J-1.588339
G03 X5.856308 Y56.930010 Z-0.100000 I1.575933 J-0.061545
G03 X7.649888 Y56.297070 Z-0.100000 I1.949127 J2.665568
G03 X9.320848 Y56.766620 Z-0.100000 I0.129538 J2.746971
G01 X9.320828 Y56.766620 Z-0.100000
G00 Z5.000000

(Change tool to Cylindrical cutter)

G00 Z5.000000
G00 X189.418600 Y40.079080

G01 Z-0.100000 F100.0(Penetrate)
G02 X188.200899 Y40.768832 Z-0.100000 I0.429254 J2.177566 F400.000000
G02 X187.759680 Y41.915440 Z-0.100000 I1.269253 J1.146608
G01 X187.589483 Y42.106440 Z-0.100000
G03 X184.634310 Y42.276640 Z-0.100000 I-2.955173 J-25.570100
G02 X181.545440 Y42.498517 Z-0.100000 I-0.000000 J21.611895
G02 X179.177530 Y43.064700 Z-0.100000 I1.908625 J13.216978
G02 X176.919899 Y43.954209 Z-0.100000 I7.874499 J23.295755
G02 X176.548210 Y44.253680 Z-0.100000 I0.392058 J0.867000
G03 X176.173127 Y44.548217 Z-0.100000 I-0.727911 J-0.540874
G03 X173.094950 Y45.712140 Z-0.100000 I-16.801410 J-39.781634
G02 X170.010928 Y46.888985 Z-0.100000 I12.750888 J38.044186
G02 X169.355750 Y47.318180 Z-0.100000 I0.891437 J2.075473
G03 X168.694988 Y47.682264 Z-0.100000 I-1.041605 J-1.108730
G03 X166.984930 Y47.931230 Z-0.100000 I-1.998198 J-7.727539
G02 X165.310606 Y48.230013 Z-0.100000 I0.219294 J6.069569
G02 X164.572570 Y48.722840 Z-0.100000 I0.515530 J1.571075
G02 X164.699610 Y52.107540 Z-0.100000 I1.887865 J1.623875
G02 X168.084310 Y52.234580 Z-0.100000 I1.760824 J-1.760824
G02 X168.577344 Y51.496638 Z-0.100000 I-1.079358 J-1.254816
G02 X168.875760 Y49.826870 Z-0.100000 I-5.743618 J-1.888032
G03 X169.097148 Y48.108321 Z-0.100000 I9.424415 J0.340542
G03 X169.384390 Y47.553650 Z-0.100000 I1.195808 J0.267551
G03 X169.982674 Y47.136269 Z-0.100000 I1.206383 J1.091771
G03 X173.106062 Y45.977839 Z-0.100000 I22.333453 J55.426105
G03 X176.309853 Y44.996450 Z-0.100000 I17.932660 J52.821858
G01 X176.637580 Y45.091240 Z-0.100000
G03 X176.796490 Y45.348300 Z-0.100000 I-0.600700 J0.548990
G03 X177.548830 Y47.462330 Z-0.100000 I-41.880113 J16.095163
G03 X178.026581 Y49.638642 Z-0.100000 I-10.520288 J3.450040
G03 X178.177000 Y52.886290 Z-0.100000 I-23.415275 J2.711820
G01 X178.102400 Y56.167260 Z-0.100000
G01 X177.402300 Y56.248360 Z-0.100000
G02 X175.822607 Y57.591748 Z-0.100000 I0.214527 J1.852739
G02 X176.375810 Y59.864220 Z-0.100000 I2.282426 J0.647944
G02 X177.094711 Y60.323279 Z-0.100000 I1.264702 J-1.188125
G02 X178.393900 Y60.532920 Z-0.100000 I1.299189 J-3.920846
G02 X179.675269 Y60.309487 Z-0.100000 I-0.000000 J-3.785984
G02 X180.332150 Y59.835780 Z-0.100000 I-0.496773 J-1.381163
G02 X180.807091 Y57.497325 Z-0.100000 I-2.086484 J-1.641223
G02 X179.356280 Y56.250730 Z-0.100000 I-1.645934 J0.448031
G01 X178.631560 Y56.167330 Z-0.100000
G01 X178.485140 Y52.463160 Z-0.100000
G02 X178.117572 Y48.803132 Z-0.100000 I-30.353421 J1.199848
G02 X177.531140 Y46.576890 Z-0.100000 I-11.745517 J1.903623
G03 X176.913514 Y44.448394 Z-0.100000 I14.437345 J-5.343143
G01 X177.016100 Y44.164820 Z-0.100000
G03 X177.334845 Y43.983736 Z-0.100000 I0.760288 J0.967192
G03 X179.426220 Y43.238070 Z-0.100000 I16.195291 J42.117385
G03 X181.576502 Y42.745414 Z-0.100000 I3.725754 J11.322729
G03 X184.651740 Y42.541290 Z-0.100000 I3.075238 J23.063003
G03 X187.565019 Y42.735968 Z-0.100000 I-0.000000 J21.895357
G01 X187.759690 Y42.958520 Z-0.100000
G02 X187.869791 Y43.330133 Z-0.100000 I0.682186 J0.000000
G02 X188.533090 Y44.149140 Z-0.100000 I4.230042 J-2.747736
G02 X190.201820 Y44.885544 Z-0.100000 I1.784221 J-1.784221
G02 X191.890070 Y44.302950 Z-0.100000 I0.110723 J-2.416562
G02 X192.396394 Y43.585172 Z-0.100000 I-1.175643 J-1.366775
G02 X192.610380 Y42.436170 Z-0.100000 I-2.977801 J-1.149002
G02 X191.676591 Y40.585792 Z-0.100000 I-2.300231 J0.000000
G02 X189.418610 Y40.079150 Z-0.100000 I-1.703397 J2.306668
G01 X189.418600 Y40.079080 Z-0.100000
G00 Z5.000000

(Change tool to Cylindrical cutter)

G00 Z5.000000
G00 X191.970960 Y40.835400

G01 Z-0.100000 F100.0(Penetrate)
G03 X192.208922 Y41.251682 Z-0.100000 I-0.579813 J0.607597 F400.000000
G03 X192.345790 Y42.437560 Z-0.100000 I-5.069023 J1.185878
G03 X191.711520 Y44.023614 Z-0.100000 I-2.300177 J0.000000
G03 X190.231880 Y44.657890 Z-0.100000 I-1.479640 J-1.408716
G03 X188.245098 Y43.428422 Z-0.100000 I0.000000 J-2.220022
G03 X188.423470 Y41.030690 Z-0.100000 I2.103973 J-1.048982
G03 X190.049896 Y40.126496 Z-0.100000 I1.743426 J1.221131
G03 X191.970960 Y40.835400 Z-0.100000 I0.141672 J2.573486
G01 X191.970960 Y40.835400 Z-0.100000
G00 Z5.000000

(Change tool to Cylindrical cutter)

G00 Z5.000000
G00 X168.549110 Y49.929680

G01 Z-0.100000 F100.0(Penetrate)
G03 X168.311422 Y51.527571 Z-0.100000 I-6.181037 J-0.102813 F400.000000
G03 X167.924490 Y52.112500 Z-0.100000 I-1.120135 J-0.320529
G03 X165.499020 Y52.420157 Z-0.100000 I-1.461129 J-1.804432
G03 X164.211760 Y50.417330 Z-0.100000 I0.914454 J-2.002827
G03 X164.997578 Y48.907618 Z-0.100000 I1.843138 J0.000000
G03 X167.386760 Y48.193730 Z-0.100000 I2.269536 J3.240595
G01 X168.577390 Y48.229730 Z-0.100000
G01 X168.549110 Y49.929680 Z-0.100000
G00 Z5.000000

(Change tool to Cylindrical cutter)

G00 Z5.000000
G00 X179.472550 Y56.560520

G01 Z-0.100000 F100.0(Penetrate)
G03 X180.737013 Y57.616452 Z-0.100000 I-0.015151 J1.303197 F400.000000
G03 X180.086760 Y59.739140 Z-0.100000 I-2.323887 J0.449054
G03 X178.556168 Y60.410491 Z-0.100000 I-1.625518 J-1.625518
G03 X176.736280 Y59.877600 Z-0.100000 I-0.122196 J-2.956702
G03 X176.037299 Y58.877982 Z-0.100000 I1.021606 J-1.458547
G03 X176.107130 Y57.518810 Z-0.100000 I2.141992 J-0.571329
G03 X176.983874 Y56.607656 Z-0.100000 I1.507451 J0.573127
G03 X178.631550 Y56.446130 Z-0.100000 I1.081193 J2.544438
G02 X179.162826 Y56.537745 Z-0.100000 I1.555324 J-7.433120
G02 X179.472550 Y56.560520 Z-0.100000 I0.338722 J-2.488942
G01 X179.472550 Y56.560520 Z-0.100000
G00 Z5.000000

(Change tool to Cylindrical cutter)

G00 Z5.000000
G00 X225.487270 Y43.572510

G01 Z-0.100000 F100.0(Penetrate)
G02 X225.197488 Y44.131385 Z-0.100000 I0.917407 J0.830249 F400.000000
G02 X225.115530 Y45.226160 Z-0.100000 I3.671263 J0.825296
G01 X225.198230 Y46.377680 Z-0.100000
G01 X227.579480 Y46.403280 Z-0.100000
G02 X228.835529 Y46.369407 Z-0.100000 I0.178402 J-16.689419
G01 X228.836250 Y46.321880 Z-0.100000
G01 X227.711770 Y46.214960 Z-0.100000
G01 X227.711770 Y45.080560 Z-0.100000
G02 X226.826753 Y43.411356 Z-0.100000 I-2.016625 J0.000000
G02 X225.487290 Y43.572510 Z-0.100000 I-0.577022 J0.851149
G01 X225.487270 Y43.572510 Z-0.100000
G00 Z5.000000

(Change tool to Cylindrical cutter)

G00 Z5.000000
G00 X227.129670 Y43.652510

G01 Z-0.100000 F100.0(Penetrate)
G03 X227.329741 Y44.018642 Z-0.100000 I-0.524146 J0.524146 F400.000000
G03 X227.447170 Y45.107720 Z-0.100000 I-4.991512 J1.089078
G01 X227.447170 Y46.245430 Z-0.100000
G01 X226.388830 Y46.245430 Z-0.100000
G01 X225.330500 Y46.245430 Z-0.100000
G01 X225.330500 Y45.107720 Z-0.100000
G03 X225.713721 Y43.718232 Z-0.100000 I2.710626 J-0.000000
G03 X226.388830 Y43.335010 Z-0.100000 I0.675109 J0.403048
G03 X226.778995 Y43.415093 Z-0.100000 I0.000000 J0.990484
G03 X227.129670 Y43.652510 Z-0.100000 I-0.441056 J1.029147
G01 X227.129670 Y43.652510 Z-0.100000
G00 Z5.000000

(Change tool to Cylindrical cutter)

G00 Z5.000000
G00 X212.429790 Y47.654390

G01 Z-0.100000 F100.0(Penetrate)
G02 X211.371502 Y48.718767 Z-0.100000 I1.312534 J2.363332 F400.000000
G02 X210.954820 Y50.346470 Z-0.100000 I2.970846 J1.627703
G02 X211.371380 Y51.801442 Z-0.100000 I2.749264 J0.000000
G02 X212.852280 Y53.388580 Z-0.100000 I4.798854 J-2.993179
G01 X213.953430 Y54.186240 Z-0.100000
G01 X213.949430 Y61.394480 Z-0.100000
G03 X213.870231 Y68.592768 Z-0.100000 I-342.880921 J-0.172974
G03 X213.781260 Y69.217230 Z-0.100000 I-2.633395 J-0.056626
G03 X213.463509 Y69.700611 Z-0.100000 I-0.888525 J-0.237945
G03 X212.229130 Y70.445400 Z-0.100000 I-3.545086 J-4.480168
G02 X211.014140 Y71.231460 Z-0.100000 I1.861611 J4.209457
G02 X210.378550 Y72.108510 Z-0.100000 I1.723647 J1.917937
G03 X209.035538 Y73.264632 Z-0.100000 I-1.885107 J-0.831720
G03 X203.344690 Y74.026680 Z-0.100000 I-5.690848 J-20.868142
G02 X199.544588 Y74.132324 Z-0.100000 I-0.000000 J68.399299
G02 X198.611390 Y74.290060 Z-0.100000 I0.235527 J4.232782
G02 X197.789405 Y74.717382 Z-0.100000 I0.642369 J2.239880
G02 X195.152360 Y77.084580 Z-0.100000 I21.426326 J26.521224
G01 X192.611690 Y79.615720 Z-0.100000
G01 X190.810870 Y79.680820 Z-0.100000
G02 X189.123002 Y79.980706 Z-0.100000 I0.222046 J6.149660
G02 X188.384670 Y80.472930 Z-0.100000 I0.511793 J1.567545
G02 X188.511710 Y83.857630 Z-0.100000 I1.887865 J1.623875
G02 X191.896410 Y83.984670 Z-0.100000 I1.760824 J-1.760824
G02 X192.388639 Y83.246348 Z-0.100000 I-1.075344 J-1.250158
G02 X192.688510 Y81.558720 Z-0.100000 I-5.848765 J-1.909712
G01 X192.753510 Y79.758160 Z-0.100000
G01 X195.217310 Y77.283690 Z-0.100000
G03 X197.779391 Y74.977202 Z-0.100000 I22.378987 J22.282669
G03 X198.607160 Y74.551750 Z-0.100000 I1.444356 J1.792182
G03 X199.547268 Y74.397241 Z-0.100000 I1.180538 J4.245667
G03 X203.346400 Y74.292790 Z-0.100000 I3.826217 J70.024823
G02 X207.134435 Y74.127992 Z-0.100000 I-0.015344 J-43.970844
G02 X208.602040 Y73.836620 Z-0.100000 I-0.592792 J-6.827580
G01 X210.044480 Y73.381930 Z-0.100000
G01 X210.543530 Y73.998220 Z-0.100000
G03 X210.945947 Y74.648731 Z-0.100000 I-2.353346 J1.905546
G03 X211.042570 Y75.094020 Z-0.100000 I-0.977750 J0.445289
G02 X211.596031 Y76.364348 Z-0.100000 I1.734586 J0.000000
G02 X213.405030 Y77.290570 Z-0.100000 I2.540747 J-2.732633
G02 X215.427807 Y77.074741 Z-0.100000 I0.667045 J-3.335151
G02 X216.753670 Y75.835160 Z-0.100000 I-1.079295 J-2.483285
G02 X217.131045 Y72.965360 Z-0.100000 I-3.785276 J-1.957471
G02 X215.806550 Y71.513650 Z-0.100000 I-1.918741 J0.420531
G03 X213.974050 Y70.435917 Z-0.100000 I1.445686 J-4.554933
G03 X213.886130 Y69.703130 Z-0.100000 I0.395085 J-0.419070
G02 X213.992836 Y69.368271 Z-0.100000 I-0.557477 J-0.362076
G02 X214.217570 Y61.614670 Z-0.100000 I-323.529353 J-13.257395
G01 X214.349860 Y53.832820 Z-0.100000
G01 X215.374620 Y53.259500 Z-0.100000
G02 X216.656058 Y52.030164 Z-0.100000 I-1.721562 J-3.077067
G02 X217.118600 Y50.425110 Z-0.100000 I-2.657077 J-1.634886
G02 X216.713122 Y48.645908 Z-0.100000 I-3.940265 J-0.037823
G02 X215.766700 Y47.680840 Z-0.100000 I-1.939604 J0.955527
G02 X214.020948 Y47.248852 Z-0.100000 I-1.776332 J3.435056
G02 X212.429350 Y47.654440 Z-0.100000 I-0.025507 J3.225551
G01 X212.429790 Y47.654390 Z-0.100000
G00 Z5.000000

(Change tool to Cylindrical cutter)

G00 Z5.000000
G00 X216.090450 Y48.341740

G01 Z-0.100000 F100.0(Penetrate)
G03 X216.905146 Y50.248274 Z-0.100000 I-1.968550 J1.968531 F400.000000
G03 X216.178850 Y52.310540 Z-0.100000 I-3.095208 J0.068946
G03 X215.452416 Y53.035530 Z-0.100000 I-4.524729 J-3.807309
G01 X215.207490 Y53.124590 Z-0.100000
G02 X214.946950 Y53.191626 Z-0.100000 I0.000000 J0.539822
G02 X214.475200 Y53.528140 Z-0.100000 I1.208726 J2.193405
G03 X214.046290 Y53.693406 Z-0.100000 I-0.428910 J-0.473938
G01 X213.694370 Y53.528140 Z-0.100000
G02 X213.322245 Y53.203817 Z-0.100000 I-1.183408 J0.982183
G02 X213.044470 Y53.124590 Z-0.100000 I-0.277775 J0.447334
G01 X212.768224 Y53.033837 Z-0.100000
G03 X211.974440 Y52.336480 Z-0.100000 I3.647823 J-4.952676
G03 X211.427465 Y51.464784 Z-0.100000 I1.837464 J-1.760434
G03 X211.219380 Y50.310700 Z-0.100000 I3.096348 J-1.154084
G03 X211.449552 Y49.176042 Z-0.100000 I2.911790 J-0.000000
G03 X212.061400 Y48.320690 Z-0.100000 I2.212615 J0.936211
G03 X214.147144 Y47.530868 Z-0.100000 I2.069498 J2.316179
G03 X216.090430 Y48.341790 Z-0.100000 I-0.014481 J2.768599
G01 X216.090450 Y48.341740 Z-0.100000
G00 Z5.000000

(Change tool to Cylindrical cutter)

G00 Z5.000000
G00 X214.085720 Y70.851680

G01 Z-0.100000 F100.0(Penetrate)
G02 X214.606766 Y71.285837 Z-0.100000 I1.794902 J-1.624379 F400.000000
G02 X214.940830 Y71.380840 Z-0.100000 I0.334064 J-0.539843
G03 X215.274842 Y71.482736 Z-0.100000 I-0.000000 J0.598389
G03 X216.090450 Y72.154240 Z-0.100000 I-3.057060 J4.544172
G03 X216.901340 Y74.097524 Z-0.100000 I-1.957784 J1.957766
G03 X216.111550 Y76.183270 Z-0.100000 I-3.106100 J0.016246
G03 X215.256193 Y76.795119 Z-0.100000 I-1.791557 J-1.600761
G03 X214.121530 Y77.025290 Z-0.100000 I-1.134663 J-2.681657
G03 X212.966042 Y76.820723 Z-0.100000 I0.000000 J-3.365641
G03 X212.120330 Y76.293780 Z-0.100000 I0.833181 J-2.279337
G03 X211.489781 Y75.490287 Z-0.100000 I2.506315 J-2.616016
G03 X211.192920 Y74.688770 Z-0.100000 I2.196940 J-1.269422
G02 X210.931040 Y73.872927 Z-0.100000 I-3.371634 J0.632317
G02 X210.633210 Y73.486740 Z-0.100000 I-1.007899 J0.469362
G03 X210.422996 Y72.324067 Z-0.100000 I0.586197 J-0.706325
G03 X212.233680 Y70.693590 Z-0.100000 I3.387124 J1.940839
G03 X213.380848 Y70.502258 Z-0.100000 I0.947590 J2.146759
G03 X214.085770 Y70.851680 Z-0.100000 I-0.091337 J1.070026
G01 X214.085720 Y70.851680 Z-0.100000
G00 Z5.000000

(Change tool to Cylindrical cutter)

G00 Z5.000000
G00 X192.361610 Y81.679720

G01 Z-0.100000 F100.0(Penetrate)
G03 X192.123920 Y83.277614 Z-0.100000 I-6.181015 J-0.102812 F400.000000
G03 X191.736990 Y83.862540 Z-0.100000 I-1.120131 J-0.320530
G03 X189.311520 Y84.170197 Z-0.100000 I-1.461129 J-1.804432
G03 X188.024260 Y82.167370 Z-0.100000 I0.914454 J-2.002827
G03 X188.810078 Y80.657658 Z-0.100000 I1.843138 J0.000000
G03 X191.199260 Y79.943770 Z-0.100000 I2.269536 J3.240595
G01 X192.389890 Y79.979770 Z-0.100000
G01 X192.361610 Y81.679720 Z-0.100000
G00 Z5.000000

(Change tool to Cylindrical cutter)

G00 Z5.000000
G00 X131.841310 Y50.698030

G01 Z-0.100000 F100.0(Penetrate)
G02 X131.544614 Y51.236284 Z-0.100000 I0.991972 J0.897693 F400.000000
G02 X131.403430 Y52.267960 Z-0.100000 I3.698790 J1.031676
G03 X131.158192 Y53.143126 Z-0.100000 I-1.684193 J-0.000000
G03 X130.675830 Y53.464250 Z-0.100000 I-0.584893 J-0.355729
G01 X130.678244 Y53.517877 Z-0.100000
G02 X132.329470 Y53.564050 Z-0.100000 I1.539102 J-25.492374
G02 X133.190893 Y53.509305 Z-0.100000 I-0.034110 J-7.341415
G01 X133.189370 Y53.458200 Z-0.100000
G01 X131.668010 Y53.362700 Z-0.100000
G01 X131.668010 Y52.217670 Z-0.100000
G03 X132.168483 Y51.032547 Z-0.100000 I1.653425 J-0.000000
G03 X133.525290 Y50.410810 Z-0.100000 I1.551774 J1.595073
G01 X134.710720 Y50.306550 Z-0.100000
G01 X133.494960 Y50.260350 Z-0.100000
G02 X132.352007 Y50.386995 Z-0.100000 I-0.147753 J3.887354
G02 X131.841310 Y50.697980 Z-0.100000 I0.269030 J1.016624
G01 X131.841310 Y50.698030 Z-0.100000
G00 Z5.000000

(Change tool to Cylindrical cutter)

G00 Z5.000000
G00 X2.630628 Y51.801640

G01 Z-0.100000 F100.0(Penetrate)
G02 X2.685429 Y52.529240 Z-0.100000 I4.857594 J-0.000000 F400.000000
G01 X2.740858 Y52.529240 Z-0.100000
G02 X2.795637 Y51.801635 Z-0.100000 I-4.804834 J-0.727605
G02 X2.740858 Y51.074030 Z-0.100000 I-4.859613 J-0.000000
G01 X2.685440 Y51.074028 Z-0.100000
G02 X2.630628 Y51.801640 Z-0.100000 I4.801965 J0.727612
G01 X2.630628 Y51.801640 Z-0.100000
G00 Z5.000000

(Change tool to Cylindrical cutter)

G00 Z5.000000
G00 X131.449660 Y56.324690

G01 Z-0.100000 F100.0(Penetrate)
G02 X131.962375 Y57.846077 Z-0.100000 I2.258848 J0.085845 F400.000000
G02 X133.169190 Y58.416220 Z-0.100000 I1.206815 J-0.992155
G02 X134.328827 Y57.833695 Z-0.100000 I0.000000 J-1.445511
G02 X134.773480 Y56.260450 Z-0.100000 I-1.840444 J-1.369633
G01 X134.670880 Y55.108930 Z-0.100000
G01 X134.624680 Y56.312780 Z-0.100000
G03 X134.101776 Y57.681656 Z-0.100000 I-2.282824 J-0.087717
G03 X133.102720 Y58.151640 Z-0.100000 I-0.999056 J-0.826866
G03 X132.170854 Y57.706896 Z-0.100000 I-0.000000 J-1.198635
G03 X131.600160 Y56.294360 Z-0.100000 I2.028570 J-1.641139
G01 X131.495900 Y55.108930 Z-0.100000
G01 X131.449660 Y56.324690 Z-0.100000
G00 Z5.000000

(Change tool to Cylindrical cutter)

G00 Z5.000000
G00 X189.768530 Y57.860010

G01 Z-0.100000 F100.0(Penetrate)
G02 X189.478748 Y58.418885 Z-0.100000 I0.917407 J0.830249 F400.000000
G02 X189.396790 Y59.513660 Z-0.100000 I3.671263 J0.825296
G01 X189.479490 Y60.665180 Z-0.100000
G01 X191.860740 Y60.665180 Z-0.100000
G01 X194.241990 Y60.665180 Z-0.100000
G01 X194.324690 Y59.513660 Z-0.100000
G02 X193.726399 Y58.058835 Z-0.100000 I-1.760564 J-0.126410
G02 X191.860760 Y57.357890 Z-0.100000 I-1.865639 J2.132325
G02 X190.304674 Y57.542003 Z-0.100000 I-0.000000 J6.667927
G02 X189.768570 Y57.860010 Z-0.100000 I0.246236 J1.026001
G01 X189.768530 Y57.860010 Z-0.100000
G00 Z5.000000

(Change tool to Cylindrical cutter)

G00 Z5.000000
G00 X193.792180 Y57.940010

G01 Z-0.100000 F100.0(Penetrate)
G03 X193.992251 Y58.306142 Z-0.100000 I-0.524146 J0.524146 F400.000000
G03 X194.109680 Y59.395220 Z-0.100000 I-4.991512 J1.089078
G01 X194.109680 Y60.532930 Z-0.100000
G01 X191.860720 Y60.532930 Z-0.100000
G01 X189.611760 Y60.532930 Z-0.100000
G01 X189.611760 Y59.395220 Z-0.100000
G03 X189.729189 Y58.306142 Z-0.100000 I5.108941 J0.000000
G03 X189.929260 Y57.940010 Z-0.100000 I0.724216 J0.158014
G03 X191.860736 Y57.139980 Z-0.100000 I1.931476 J1.931523
G03 X193.792180 Y57.940010 Z-0.100000 I-0.000000 J2.731474
G01 X193.792180 Y57.940010 Z-0.100000
G00 Z5.000000

(Change tool to Cylindrical cutter)

G00 Z5.000000
G00 X33.836038 Y59.560600

G01 Z-0.100000 F100.0(Penetrate)
G02 X32.256764 Y62.301202 Z-0.100000 I1.490859 J2.684438 F400.000000
G02 X33.936418 Y65.047900 Z-0.100000 I3.180785 J-0.058188
G02 X35.685180 Y65.457919 Z-0.100000 I1.641644 J-3.067423
G02 X37.223318 Y64.946650 Z-0.100000 I-0.087230 J-2.831782
G02 X37.745624 Y64.461186 Z-0.100000 I-1.488284 J-2.124937
G02 X38.384258 Y63.522940 Z-0.100000 I-5.094369 J-4.154043
G01 X38.948358 Y62.517260 Z-0.100000
G01 X63.943078 Y62.447960 Z-0.100000
G03 X88.924491 Y62.510968 Z-0.100000 I6.537283 J2360.444300
G03 X90.271858 Y62.653740 Z-0.100000 I-0.054237 J6.940913
G03 X91.456067 Y63.203546 Z-0.100000 I-0.575024 J2.788742
G03 X94.905898 Y66.294910 Z-0.100000 I-22.145318 J28.183850
G03 X98.195093 Y69.671335 Z-0.100000 I-531.099356 J520.668769
G03 X99.328168 Y70.863320 Z-0.100000 I-65.090911 J63.008516
G01 X100.450450 Y72.065620 Z-0.100000
G01 X99.655068 Y74.418680 Z-0.100000
G02 X99.083151 Y76.808485 Z-0.100000 I12.798676 J4.326258
G02 X98.859678 Y79.910600 Z-0.100000 I21.419119 J3.102115
G01 X98.859678 Y83.049470 Z-0.100000
G01 X97.938838 Y83.434230 Z-0.100000
G02 X96.636185 Y84.493581 Z-0.100000 I1.143414 J2.736615
G02 X96.160928 Y86.027070 Z-0.100000 I2.236390 J1.533489
G02 X97.121122 Y87.987413 Z-0.100000 I2.481227 J-0.000000
G02 X99.997988 Y89.004260 Z-0.100000 I2.972021 J-3.830409
G01 X101.832230 Y89.040260 Z-0.100000
G01 X112.054830 Y99.260330 Z-0.100000
G02 X122.392250 Y109.285462 Z-0.100000 I334.643359 J-334.725400
G02 X123.200660 Y109.745190 Z-0.100000 I1.352639 J-1.437910
G02 X124.418462 Y109.924101 Z-0.100000 I1.275344 J-4.446846
G02 X138.678780 Y110.012891 Z-0.100000 I14.275962 J-1147.625378
G02 X152.939123 Y109.924490 Z-0.100000 I0.015644 J-1147.711258
G02 X154.156810 Y109.745610 Z-0.100000 I-0.057405 J-4.624789
G02 X154.969974 Y109.296643 Z-0.100000 I-0.573441 J-1.999491
G02 X160.505060 Y104.068480 Z-0.100000 I-93.162448 J-104.175708
G03 X166.073606 Y98.913659 Z-0.100000 I71.857948 J72.040107
G03 X167.122180 Y98.386180 Z-0.100000 I1.586102 J1.847038
G03 X168.327048 Y98.243908 Z-0.100000 I1.276900 J5.640755
G03 X189.279370 Y98.110190 Z-0.100000 I21.484625 J1724.854965
G01 X210.245940 Y98.104190 Z-0.100000
G01 X211.043610 Y99.205340 Z-0.100000
G02 X212.595744 Y100.686236 Z-0.100000 I4.800148 J-3.477211
G02 X213.951270 Y101.110130 Z-0.100000 I1.423628 J-2.173175
G02 X216.186424 Y100.226429 Z-0.100000 I0.080424 J-3.065134
G02 X217.128420 Y97.971910 Z-0.100000 I-2.226922 J-2.254519
G02 X216.221037 Y95.824817 Z-0.100000 I-2.993968 J-0.000000
G02 X214.007130 Y94.938580 Z-0.100000 I-2.183920 J2.247251
G02 X212.402169 Y95.401071 Z-0.100000 I0.029907 J3.119840
G02 X211.172470 Y96.682570 Z-0.100000 I1.848405 J3.004436
G01 X210.598870 Y97.707330 Z-0.100000
G01 X188.794380 Y97.839620 Z-0.100000
G02 X167.023263 Y98.119793 Z-0.100000 I9.715330 J1600.954142
G02 X166.328430 Y98.281570 Z-0.100000 I0.033798 J1.718207
G02 X165.733787 Y98.686246 Z-0.100000 I0.958835 J2.048172
G02 X160.375300 Y103.908620 Z-0.100000 I168.122028 J177.864126
G03 X154.973056 Y109.037290 Z-0.100000 I-92.972821 J-92.522633
G03 X154.157600 Y109.484470 Z-0.100000 I-1.365120 J-1.522266
G03 X152.945386 Y109.657889 Z-0.100000 I-1.268994 J-4.546923
G03 X138.678778 Y109.743594 Z-0.100000 I-14.250462 J-1184.698762
G03 X124.411845 Y109.657494 Z-0.100000 I0.016146 J-1184.752286
G03 X123.201350 Y109.484040 Z-0.100000 I0.056746 J-4.706624
G03 X122.391084 Y109.027180 Z-0.100000 I0.524955 J-1.877990
G03 X112.256320 Y99.200650 Z-0.100000 I307.513809 J-327.299380
G01 X102.237330 Y89.176120 Z-0.100000
G01 X101.899370 Y86.887920 Z-0.100000
G02 X101.053762 Y84.362919 Z-0.100000 I-7.500440 J1.107759
G02 X100.005220 Y83.418030 Z-0.100000 I-1.869810 J1.020698
G01 X99.124258 Y83.049940 Z-0.100000
G01 X99.124258 Y79.928240 Z-0.100000
G03 X99.346141 Y76.842531 Z-0.100000 I21.567302 J-0.000000
G03 X99.921468 Y74.413620 Z-0.100000 I13.895084 J2.008683
G01 X100.718670 Y72.020700 Z-0.100000
G01 X103.308480 Y71.171820 Z-0.100000
G03 X105.941778 Y70.595197 Z-0.100000 I4.156846 J12.682189
G03 X110.695880 Y70.322950 Z-0.100000 I4.754102 J41.372990
G01 X115.493460 Y70.322950 Z-0.100000
G01 X116.247340 Y71.447430 Z-0.100000
G02 X118.593003 Y72.939152 Z-0.100000 I2.871419 J-1.925089
G02 X120.942790 Y72.169940 Z-0.100000 I0.415932 J-2.703080
G02 X121.299105 Y71.555596 Z-0.100000 I-0.977425 J-0.977401
G02 X121.481560 Y70.190660 Z-0.100000 I-5.014277 J-1.364936
G02 X120.802811 Y68.345596 Z-0.100000 I-2.847120 J0.000000
G02 X119.196090 Y67.504710 Z-0.100000 I-1.845040 J1.569942
G02 X117.411647 Y67.854548 Z-0.100000 I-0.310570 J3.141791
G02 X116.234240 Y69.068270 Z-0.100000 I1.274538 J2.414353
G01 X115.749430 Y70.058370 Z-0.100000
G01 X110.823870 Y70.058370 Z-0.100000
G02 X105.942294 Y70.333783 Z-0.100000 I-0.000000 J43.399557
G02 X103.299720 Y70.910120 Z-0.100000 I1.493651 J13.195001
G01 X100.701140 Y71.761880 Z-0.100000
G01 X96.142388 Y67.241060 Z-0.100000
G02 X91.529159 Y62.800137 Z-0.100000 I-151.851194 J153.126372
G02 X91.054468 Y62.486700 Z-0.100000 I-1.161718 J1.243217
G02 X90.501204 Y62.366015 Z-0.100000 I-0.572988 J1.298267
G02 X64.736778 Y62.120870 Z-0.100000 I-40.836014 J2937.780334
G01 X38.948248 Y61.988580 Z-0.100000
G01 X38.366448 Y60.951250 Z-0.100000
G02 X37.697779 Y60.001202 Z-0.100000 I-4.968701 J2.786768
G02 X37.167468 Y59.571560 Z-0.100000 I-1.484048 J1.289668
G02 X35.491477 Y59.135023 Z-0.100000 I-1.686934 J3.041050
G02 X33.836038 Y59.561060 Z-0.100000 I-0.010661 J3.387836
G01 X33.836038 Y59.560600 Z-0.100000
G00 Z5.000000

(Change tool to Cylindrical cutter)

G00 Z5.000000
G00 X37.154508 Y59.887570

G01 Z-0.100000 F100.0(Penetrate)
G03 X37.656868 Y60.374869 Z-0.100000 I-1.266587 J1.808327 F400.000000
G03 X38.259558 Y61.367300 Z-0.100000 I-4.868912 J3.636042
G01 X38.774938 Y62.434020 Z-0.100000
G01 X38.161628 Y63.405570 Z-0.100000
G03 X36.856509 Y64.713638 Z-0.100000 I-3.561346 J-2.248193
G03 X35.460908 Y65.119000 Z-0.100000 I-1.395601 J-2.199745
G03 X34.357016 Y64.902710 Z-0.100000 I0.000000 J-2.925137
G03 X33.446538 Y64.298110 Z-0.100000 I1.042054 J-2.557103
G03 X32.846775 Y63.385628 Z-0.100000 I1.906405 J-1.906405
G03 X32.625648 Y62.228240 Z-0.100000 I2.918343 J-1.157388
G03 X32.856816 Y61.082698 Z-0.100000 I2.953925 J-0.000000
G03 X33.467668 Y60.226900 Z-0.100000 I2.204066 J0.927313
G03 X35.349144 Y59.408042 Z-0.100000 I2.181570 J2.441607
G03 X37.154508 Y59.887570 Z-0.100000 I0.248690 J2.701964
G01 X37.154508 Y59.887570 Z-0.100000
G00 Z5.000000

(Change tool to Cylindrical cutter)

G00 Z5.000000
G00 X120.781220 Y68.318120

G01 Z-0.100000 F100.0(Penetrate)
G03 X121.564429 Y70.190170 Z-0.100000 I-1.890997 J1.890997 F400.000000
G03 X120.807520 Y72.035910 Z-0.100000 I-2.584245 J0.018310
G03 X118.490411 Y72.763609 Z-0.100000 I-1.855576 J-1.855576
G03 X116.442560 Y71.256060 Z-0.100000 I0.505966 J-2.831977
G03 X116.170253 Y70.201414 Z-0.100000 I2.159968 J-1.120177
G03 X116.386960 Y69.192380 Z-0.100000 I2.183566 J-0.058830
G03 X116.977527 Y68.285491 Z-0.100000 I3.842377 J1.856425
G03 X117.459120 Y67.930680 Z-0.100000 I0.993492 J0.844247
G03 X119.400304 Y67.649817 Z-0.100000 I1.498930 J3.511184
G03 X120.781150 Y68.318120 Z-0.100000 I-0.270537 J2.319685
G01 X120.781220 Y68.318120 Z-0.100000
G00 Z5.000000

(Change tool to Cylindrical cutter)

G00 Z5.000000
G00 X100.385780 Y83.846810

G01 Z-0.100000 F100.0(Penetrate)
G03 X101.004833 Y84.441117 Z-0.100000 I-0.379844 J1.015229 F400.000000
G03 X101.646820 Y86.839420 Z-0.100000 I-8.360807 J3.523129
G03 X101.271858 Y88.283627 Z-0.100000 I-2.004261 J0.250409
G03 X100.182600 Y88.837780 Z-0.100000 I-1.093026 J-0.800867
G03 X97.350525 Y87.920716 Z-0.100000 I-0.013869 J-4.788708
G03 X96.425518 Y86.103280 Z-0.100000 I1.322929 J-1.817436
G03 X96.842734 Y84.609445 Z-0.100000 I2.882936 J-0.000000
G03 X97.878878 Y83.704370 Z-0.100000 I1.940044 J1.175359
G03 X98.869160 Y83.527690 Z-0.100000 I0.866881 J1.995249
G03 X100.385780 Y83.846810 Z-0.100000 I-0.292919 J5.155535
G01 X100.385780 Y83.846810 Z-0.100000
G00 Z5.000000

(Change tool to Cylindrical cutter)

G00 Z5.000000
G00 X216.090450 Y95.966700

G01 Z-0.100000 F100.0(Penetrate)
G03 X216.901340 Y97.909984 Z-0.100000 I-1.957784 J1.957766 F400.000000
G03 X216.111550 Y99.995730 Z-0.100000 I-3.106100 J0.016246
G03 X215.256193 Y100.607579 Z-0.100000 I-1.791557 J-1.600761
G03 X214.121530 Y100.837750 Z-0.100000 I-1.134663 J-2.681657
G03 X212.967457 Y100.629666 Z-0.100000 I0.000000 J-3.304403
G03 X212.095750 Y100.082690 Z-0.100000 I0.888763 J-2.384507
G03 X211.398393 Y99.288906 Z-0.100000 I4.255319 J-4.441607
G01 X211.307640 Y99.012660 Z-0.100000
G02 X211.228416 Y98.734888 Z-0.100000 I-0.526572 J0.000000
G02 X210.904090 Y98.362760 Z-0.100000 I-1.306370 J0.811165
G01 X210.738828 Y98.010841 Z-0.100000
G03 X210.904090 Y97.581930 Z-0.100000 I0.639214 J0.000000
G02 X211.240607 Y97.110178 Z-0.100000 I-1.856542 J-1.680237
G02 X211.307640 Y96.849640 Z-0.100000 I-0.472803 J-0.260538
G01 X211.396702 Y96.604713 Z-0.100000
G03 X212.121690 Y95.878280 Z-0.100000 I4.532803 J3.798797
G03 X214.183963 Y95.151987 Z-0.100000 I1.993326 J2.368943
G03 X216.090490 Y95.966680 Z-0.100000 I-0.061997 J2.783236
G01 X216.090450 Y95.966700 Z-0.100000
G00 Z5.000000

(Change tool to Cylindrical cutter)

G00 Z5.000000
G00 X131.443070 Y60.581460

G01 Z-0.100000 F100.0(Penetrate)
G03 X131.213460 Y61.118686 Z-0.100000 I-0.855031 J-0.047759 F400.000000
G03 X130.675830 Y61.401710 Z-0.100000 I-0.676334 J-0.632607
G01 X129.948220 Y61.511930 Z-0.100000
G01 X130.658250 Y61.551530 Z-0.100000
G03 X131.195482 Y61.781143 Z-0.100000 I-0.047759 J0.855038
G03 X131.478510 Y62.318770 Z-0.100000 I-0.632624 J0.676351
G01 X131.588730 Y63.046380 Z-0.100000
G01 X131.628330 Y62.333270 Z-0.100000
G03 X131.908805 Y61.858629 Z-0.100000 I0.598042 J0.033205
G03 X132.897640 Y61.539520 Z-0.100000 I1.128080 J1.804001
G02 X134.388309 Y60.942067 Z-0.100000 I-0.169252 J-2.580656
G01 X134.418210 Y60.266820 Z-0.100000
G01 X134.263602 Y60.275401 Z-0.100000
G01 X134.159570 Y60.590270 Z-0.100000
G01 X133.942201 Y60.977938 Z-0.100000
G03 X132.943640 Y61.274160 Z-0.100000 I-1.149550 J-2.043941
G03 X131.931833 Y61.073621 Z-0.100000 I-0.129102 J-2.001391
G03 X131.594220 Y60.612710 Z-0.100000 I0.270793 J-0.552459
G01 X131.482680 Y59.871380 Z-0.100000
G01 X131.443070 Y60.581460 Z-0.100000
G00 Z5.000000

(Change tool to Cylindrical cutter)

G00 Z5.000000
G00 X189.457720 Y63.905000

G01 Z-0.100000 F100.0(Penetrate)
G01 X189.479420 Y65.427680 Z-0.100000 F400.000000
G01 X191.860670 Y65.427680 Z-0.100000
G01 X194.241920 Y65.427680 Z-0.100000
G01 X194.263720 Y63.905000 Z-0.100000
G01 X194.285420 Y62.382320 Z-0.100000
G01 X194.184320 Y63.838850 Z-0.100000
G01 X194.083220 Y65.295390 Z-0.100000
G01 X193.055660 Y65.295390 Z-0.100000
G03 X192.234561 Y65.055286 Z-0.100000 I0.000000 J-1.524036
G03 X191.917880 Y64.567780 Z-0.100000 I0.379190 J-0.592929
G01 X191.807660 Y63.840180 Z-0.100000
G01 X191.768060 Y64.567780 Z-0.100000
G03 X191.494605 Y65.048491 Z-0.100000 I-0.618505 J-0.033707
G03 X190.683290 Y65.295390 Z-0.100000 I-0.811315 J-1.209548
G01 X189.638160 Y65.295390 Z-0.100000
G01 X189.537060 Y63.838850 Z-0.100000
G01 X189.435960 Y62.382320 Z-0.100000
G01 X189.457660 Y63.905000 Z-0.100000
G01 X189.457720 Y63.905000 Z-0.100000
G00 Z5.000000

(Change tool to Cylindrical cutter)

G00 Z5.000000
G00 X5.582148 Y64.779380

G01 Z-0.100000 F100.0(Penetrate)
G02 X5.061067 Y66.236780 Z-0.100000 I1.501237 J1.358608 F400.000000
G02 X5.730358 Y67.813200 Z-0.100000 I2.476063 J-0.120958
G02 X6.462790 Y68.260619 Z-0.100000 I1.180112 J-1.108652
G02 X7.824738 Y68.415750 Z-0.100000 I1.141904 J-3.969096
G02 X9.143622 Y68.097599 Z-0.100000 I-0.198096 J-3.713969
G02 X9.829938 Y67.520010 Z-0.100000 I-0.663194 J-1.484584
G01 X10.379758 Y66.701920 Z-0.100000
G01 X11.584958 Y67.053340 Z-0.100000
G03 X12.668832 Y67.605010 Z-0.100000 I-0.915156 J3.138606
G03 X14.946798 Y69.651160 Z-0.100000 I-12.671912 J16.398659
G01 X17.103428 Y71.897560 Z-0.100000
G01 X17.103428 Y73.511620 Z-0.100000
G02 X17.342678 Y75.026563 Z-0.100000 I4.915977 J0.000000
G02 X17.876828 Y75.899070 Z-0.100000 I2.080546 J-0.673956
G02 X18.749576 Y76.432605 Z-0.100000 I1.542286 J-1.542263
G02 X20.274628 Y76.672470 Z-0.100000 I1.525052 J-4.728187
G01 X21.899038 Y76.672470 Z-0.100000
G01 X24.685718 Y79.384450 Z-0.100000
G01 X27.472388 Y82.096430 Z-0.100000
G01 X31.879058 Y82.228720 Z-0.100000
G03 X36.048369 Y82.626308 Z-0.100000 I-0.966580 J32.195633
G01 X36.369968 Y82.954080 Z-0.100000
G02 X37.669800 Y84.945835 Z-0.100000 I2.781403 J-0.395145
G02 X40.053138 Y85.240240 Z-0.100000 I1.510443 J-2.433415
G02 X41.858821 Y83.985628 Z-0.100000 I-1.142884 J-3.571589
G02 X42.503428 Y82.122020 Z-0.100000 I-2.371614 J-1.863608
G02 X41.608511 Y79.948639 Z-0.100000 I-3.086579 J-0.000000
G02 X39.460718 Y79.053720 Z-0.100000 I-2.147793 J2.129879
G02 X37.577929 Y79.702956 Z-0.100000 I0.000000 J3.054667
G02 X36.311178 Y81.518940 Z-0.100000 I2.327122 J2.973106
G01 X35.993819 Y81.772144 Z-0.100000
G03 X31.790168 Y81.915820 Z-0.100000 I-3.445945 J-39.254085
G01 X27.423988 Y81.831820 Z-0.100000
G01 X24.760978 Y79.168090 Z-0.100000
G01 X22.097958 Y76.504370 Z-0.100000
G01 X22.033858 Y74.729430 Z-0.100000
G02 X21.128048 Y72.647841 Z-0.100000 I-3.102141 J0.112028
G02 X19.050298 Y71.742160 Z-0.100000 I-2.189462 J2.186757
G01 X17.279188 Y71.678160 Z-0.100000
G01 X14.989088 Y69.398680 Z-0.100000
G02 X12.587558 Y67.307167 Z-0.100000 I-16.886874 J16.965449
G02 X11.539968 Y66.776970 Z-0.100000 I-1.969022 J2.590451
G03 X10.552614 Y66.267450 Z-0.100000 I0.836036 J-2.831493
G03 X10.188678 Y65.715840 Z-0.100000 I0.645076 J-0.821464
G02 X9.430004 Y64.710070 Z-0.100000 I-1.620583 J0.433415
G02 X7.719348 Y64.237000 Z-0.100000 I-1.710656 J2.856392
G02 X6.159409 Y64.431836 Z-0.100000 I0.000000 J6.342166
G02 X5.582158 Y64.779330 Z-0.100000 I0.286549 J1.129219
G01 X5.582148 Y64.779380 Z-0.100000
G00 Z5.000000

(Change tool to Cylindrical cutter)

G00 Z5.000000
G00 X9.369198 Y64.722780

G01 Z-0.100000 F100.0(Penetrate)
G03 X10.068847 Y65.714394 Z-0.100000 I-0.853683 J1.344961 F400.000000
G03 X9.895728 Y67.037470 Z-0.100000 I-1.877815 J0.427160
G03 X9.073876 Y67.861902 Z-0.100000 I-1.743786 J-0.916473
G03 X7.689458 Y68.205850 Z-0.100000 I-1.384419 J-2.614221
G03 X5.982744 Y67.579038 Z-0.100000 I0.000000 J-2.636966
G03 X5.355928 Y66.224570 Z-0.100000 I1.150006 J-1.354468
G03 X5.518136 Y65.315774 Z-0.100000 I2.626930 J-0.000000
G03 X5.856288 Y64.867560 Z-0.100000 I0.911709 J0.336167
G03 X7.616254 Y64.252357 Z-0.100000 I1.891961 J2.587453
G03 X9.369198 Y64.722780 Z-0.100000 I0.125089 J3.035100
G01 X9.369198 Y64.722780 Z-0.100000
G00 Z5.000000

(Change tool to Cylindrical cutter)

G00 Z5.000000
G00 X21.278788 Y72.532410

G01 Z-0.100000 F100.0(Penetrate)
G03 X21.529820 Y72.997891 Z-0.100000 I-0.652112 J0.652112 F400.000000
G03 X21.707048 Y74.604860 Z-0.100000 I-8.439969 J1.744078
G01 X21.733648 Y76.275650 Z-0.100000
G01 X20.213438 Y76.354950 Z-0.100000
G03 X18.781317 Y76.204697 Z-0.100000 I-0.240347 J-4.609352
G03 X18.030628 Y75.771670 Z-0.100000 I0.431879 J-1.615902
G03 X17.575335 Y75.023198 Z-0.100000 I1.308931 J-1.308931
G03 X17.368028 Y73.685930 Z-0.100000 I4.209481 J-1.337268
G03 X17.452398 Y72.297021 Z-0.100000 I11.474386 J0.000000
G01 X17.566458 Y72.058570 Z-0.100000
G03 X19.170251 Y71.497743 Z-0.100000 I1.363104 J1.324466
G03 X21.278798 Y72.532400 Z-0.100000 I-0.460027 J3.603350
G01 X21.278788 Y72.532410 Z-0.100000
G00 Z5.000000

(Change tool to Cylindrical cutter)

G00 Z5.000000
G00 X41.465448 Y80.091750

G01 Z-0.100000 F100.0(Penetrate)
G03 X42.276343 Y82.035035 Z-0.100000 I-1.957766 J1.957766 F400.000000
G03 X41.486548 Y84.120780 Z-0.100000 I-3.106083 J0.016246
G03 X40.630750 Y84.731632 Z-0.100000 I-1.783112 J-1.593214
G03 X39.485208 Y84.962800 Z-0.100000 I-1.145542 J-2.722758
G03 X38.327815 Y84.741673 Z-0.100000 I0.000000 J-3.139499
G03 X37.415338 Y84.141910 Z-0.100000 I0.993893 J-2.506104
G03 X36.815575 Y83.229428 Z-0.100000 I1.906405 J-1.906405
G03 X36.594448 Y82.072040 Z-0.100000 I2.918343 J-1.157388
G03 X36.825616 Y80.926498 Z-0.100000 I2.953925 J0.000000
G03 X37.436468 Y80.070700 Z-0.100000 I2.204066 J0.927313
G03 X39.522206 Y79.280875 Z-0.100000 I2.069492 J2.316153
G03 X41.465498 Y80.091800 Z-0.100000 I-0.014481 J2.768608
G01 X41.465448 Y80.091750 Z-0.100000
G00 Z5.000000

(Change tool to Cylindrical cutter)

G00 Z5.000000
G00 X176.268100 Y64.746610

G01 Z-0.100000 F100.0(Penetrate)
G02 X175.943954 Y65.318825 Z-0.100000 I1.116404 J1.010333 F400.000000
G02 X175.596210 Y66.955820 Z-0.100000 I9.328225 J2.837014
G03 X174.916678 Y68.986945 Z-0.100000 I-5.363429 J-0.665152
G03 X173.027870 Y71.417470 Z-0.100000 I-9.674719 J-5.569233
G03 X169.527856 Y73.682206 Z-0.100000 I-7.407521 J-7.610980
G03 X168.709680 Y73.126040 Z-0.100000 I-0.220057 J-0.556166
G02 X168.229971 Y72.301538 Z-0.100000 I-0.948412 J0.000000
G02 X166.415430 Y71.821830 Z-0.100000 I-1.814541 J3.191981
G02 X165.283931 Y72.034480 Z-0.100000 I0.000000 J3.116649
G02 X164.566770 Y72.542140 Z-0.100000 I0.659015 J1.691366
G02 X164.038351 Y73.296263 Z-0.100000 I3.525183 J3.032314
G02 X163.947180 Y73.644570 Z-0.100000 I0.619745 J0.348307
G01 X163.765153 Y73.844723 Z-0.100000
G03 X159.912280 Y74.028160 Z-0.100000 I-3.867800 J-40.684205
G02 X155.891724 Y74.134177 Z-0.100000 I0.027883 J77.347485
G02 X154.951350 Y74.288150 Z-0.100000 I0.227307 J4.336863
G02 X154.136126 Y74.736197 Z-0.100000 I0.547853 J1.962499
G02 X148.336760 Y80.241590 Z-0.100000 I100.719925 J111.905296
G01 X142.648220 Y85.936520 Z-0.100000
G01 X142.558320 Y88.549110 Z-0.100000
G01 X142.468320 Y91.161710 Z-0.100000
G01 X141.659160 Y91.393780 Z-0.100000
G02 X140.350184 Y92.323671 Z-0.100000 I0.666717 J2.324759
G02 X139.817190 Y94.002730 Z-0.100000 I2.378220 J1.679059
G02 X141.594359 Y96.629658 Z-0.100000 I2.830086 J-0.000000
G02 X144.755300 Y95.982010 Z-0.100000 I1.089755 J-2.718835
G02 X145.112488 Y95.368031 Z-0.100000 I-0.982479 J-0.982455
G02 X145.294070 Y94.023160 Z-0.100000 I-4.889549 J-1.344871
G02 X144.739733 Y92.180418 Z-0.100000 I-3.340017 J-0.000000
G02 X143.522870 Y91.345610 Z-0.100000 I-1.638241 J1.083705
G01 X142.732580 Y91.172030 Z-0.100000
G01 X142.822680 Y88.554330 Z-0.100000
G01 X142.912780 Y85.936630 Z-0.100000
G01 X148.469030 Y80.373910 Z-0.100000
G03 X154.135830 Y75.000298 Z-0.100000 I101.841384 J101.723107
G03 X154.951320 Y74.552710 Z-0.100000 I1.364609 J1.519582
G03 X155.891692 Y74.398752 Z-0.100000 I1.167632 J4.183010
G03 X159.912250 Y74.292750 Z-0.100000 I4.048799 J77.266105
G03 X163.749284 Y74.489215 Z-0.100000 I0.010679 J37.359040
G01 X163.947150 Y74.708500 Z-0.100000
G02 X164.057251 Y75.080113 Z-0.100000 I0.682186 J0.000000
G02 X164.720550 Y75.899120 Z-0.100000 I4.230042 J-2.747736
G02 X167.170956 Y76.573552 Z-0.100000 I1.818532 J-1.818518
G02 X168.792960 Y74.866910 Z-0.100000 I-0.542286 J-2.139495
G03 X169.141227 Y74.284784 Z-0.100000 I0.992394 J0.198476
G03 X170.114880 Y73.776100 Z-0.100000 I1.689235 J2.047144
G02 X171.172111 Y73.258321 Z-0.100000 I-0.874848 J-3.124564
G02 X173.290240 Y71.422610 Z-0.100000 I-10.953064 J-14.778009
G02 X175.188084 Y69.327211 Z-0.100000 I-22.594152 J-22.371124
G02 X175.566990 Y68.672420 Z-0.100000 I-1.753830 J-1.451910
G03 X175.966723 Y68.233727 Z-0.100000 I0.746989 J0.279187
G03 X176.524180 Y68.209400 Z-0.100000 I0.306951 J0.634558
G02 X177.226139 Y68.386719 Z-0.100000 I1.112582 J-2.926331
G02 X178.497250 Y68.470440 Z-0.100000 I1.271111 J-9.607546
G02 X179.678431 Y68.253612 Z-0.100000 I-0.000000 J-3.325677
G02 X180.332110 Y67.773300 Z-0.100000 I-0.538905 J-1.418389
G02 X180.889537 Y66.275998 Z-0.100000 I-2.057420 J-1.618365
G02 X180.468610 Y64.825140 Z-0.100000 I-2.337812 J-0.108237
G02 X179.944541 Y64.452646 Z-0.100000 I-0.785466 J0.550178
G02 X178.392940 Y64.237100 Z-0.100000 I-1.551601 J5.476802
G02 X176.812088 Y64.423984 Z-0.100000 I0.000000 J6.779646
G02 X176.268070 Y64.746610 Z-0.100000 I0.249573 J1.040815
G01 X176.268100 Y64.746610 Z-0.100000
G00 Z5.000000

(Change tool to Cylindrical cutter)

G00 Z5.000000
G00 X180.200160 Y64.917460

G01 Z-0.100000 F100.0(Penetrate)
G03 X180.716562 Y66.240369 Z-0.100000 I-1.250306 J1.250306 F400.000000
G03 X180.086760 Y67.676690 Z-0.100000 I-2.154670 J-0.088547
G03 X178.786556 Y68.270835 Z-0.100000 I-1.447146 J-1.447146
G03 X176.498410 Y67.935000 Z-0.100000 I-0.384582 J-5.342554
G03 X176.060150 Y67.496982 Z-0.100000 I0.268927 J-0.707337
G03 X175.925160 Y66.429740 Z-0.100000 I2.131575 J-0.811770
G03 X176.208202 Y65.278842 Z-0.100000 I4.578288 J0.515693
G03 X176.538600 Y64.848510 Z-0.100000 I0.900559 J0.349424
G03 X178.545638 Y64.213830 Z-0.100000 I1.945010 J2.659918
G03 X180.200160 Y64.917510 Z-0.100000 I-0.045248 J2.403319
G01 X180.200160 Y64.917460 Z-0.100000
G00 Z5.000000

(Change tool to Cylindrical cutter)

G00 Z5.000000
G00 X168.180510 Y72.607570

G01 Z-0.100000 F100.0(Penetrate)
G03 X168.807084 Y74.245369 Z-0.100000 I-1.417642 J1.481103 F400.000000
G03 X167.926330 Y75.923500 Z-0.100000 I-2.387818 J-0.183035
G03 X164.916189 Y75.806007 Z-0.100000 I-1.438046 J-1.775905
G03 X164.610970 Y72.780690 Z-0.100000 I1.601706 J-1.689648
G03 X166.239321 Y71.882381 Z-0.100000 I1.730707 J1.212229
G03 X168.180510 Y72.607570 Z-0.100000 I0.127088 J2.620497
G01 X168.180510 Y72.607570 Z-0.100000
G00 Z5.000000

(Change tool to Cylindrical cutter)

G00 Z5.000000
G00 X144.557000 Y92.093900

G01 Z-0.100000 F100.0(Penetrate)
G03 X145.226609 Y93.538901 Z-0.100000 I-1.635562 J1.635562 F400.000000
G03 X144.835090 Y95.457890 Z-0.100000 I-3.486109 J0.288186
G03 X143.003101 Y96.705967 Z-0.100000 I-2.092323 J-1.102636
G03 X140.739440 Y95.911460 Z-0.100000 I-0.304915 J-2.753253
G03 X139.944936 Y93.647802 Z-0.100000 I1.958770 J-1.958751
G03 X141.193010 Y91.815810 Z-0.100000 I2.350706 J0.260326
G03 X143.111999 Y91.424291 Z-0.100000 I1.630803 J3.094590
G03 X144.557000 Y92.093900 Z-0.100000 I-0.190561 J2.305171
G01 X144.557000 Y92.093900 Z-0.100000
G00 Z5.000000

(Change tool to Cylindrical cutter)

G00 Z5.000000
G00 X132.400360 Y64.693390

G01 Z-0.100000 F100.0(Penetrate)
G02 X133.264218 Y64.745938 Z-0.100000 I0.851940 J-6.878437 F400.000000
G02 X133.987860 Y64.690390 Z-0.100000 I-0.008340 J-4.849968
G01 X133.987106 Y64.635839 Z-0.100000
G02 X133.123220 Y64.583320 Z-0.100000 I-0.852120 J6.885270
G02 X132.399620 Y64.638649 Z-0.100000 I0.011238 J4.906277
G01 X132.400360 Y64.693090 Z-0.100000
G01 X132.400360 Y64.693390 Z-0.100000
G00 Z5.000000

(Change tool to Cylindrical cutter)

G00 Z5.000000
G00 X132.329460 Y66.284480

G01 Z-0.100000 F100.0(Penetrate)
G03 X133.427978 Y67.070423 Z-0.100000 I-0.213314 J1.458825 F400.000000
G01 X133.057070 Y67.703010 Z-0.100000
G01 X132.329460 Y67.729410 Z-0.100000
G01 X132.989530 Y67.913080 Z-0.100000
G03 X133.577875 Y68.558210 Z-0.100000 I-0.220300 J0.791753
G01 X133.206940 Y69.112120 Z-0.100000
G03 X132.593959 Y69.243154 Z-0.100000 I-95.900490 J-447.124503
G03 X132.064880 Y69.355460 Z-0.100000 I-75.189420 J-352.920063
G01 X132.051843 Y69.424109 Z-0.100000
G01 X132.280710 Y69.498050 Z-0.100000
G02 X133.460687 Y69.042189 Z-0.100000 I0.065366 J-1.585894
G02 X133.983290 Y67.818720 Z-0.100000 I-1.232939 J-1.249997
G02 X133.481082 Y66.586457 Z-0.100000 I-1.699748 J-0.025737
G02 X132.280710 Y66.128800 Z-0.100000 I-1.116182 J1.124557
G01 X131.535710 Y66.168400 Z-0.100000
G01 X132.329460 Y66.284460 Z-0.100000
G01 X132.329460 Y66.284480 Z-0.100000
G00 Z5.000000

(Change tool to Cylindrical cutter)

G00 Z5.000000
G00 X194.157360 Y68.526230

G01 Z-0.100000 F100.0(Penetrate)
G01 X194.109660 Y70.037280 Z-0.100000 F400.000000
G01 X191.794550 Y70.125480 Z-0.100000
G01 X189.479450 Y70.213680 Z-0.100000
G01 X191.802860 Y70.268080 Z-0.100000
G02 X193.723380 Y69.629645 Z-0.100000 I0.070175 J-2.996745
G02 X194.305470 Y68.304500 Z-0.100000 I-0.946314 J-1.206101
G01 X194.205040 Y67.015200 Z-0.100000
G01 X194.157360 Y68.526230 Z-0.100000
G00 Z5.000000

(Change tool to Cylindrical cutter)

G00 Z5.000000
G00 X2.593688 Y71.033310

G01 Z-0.100000 F100.0(Penetrate)
G03 X2.323165 Y71.664413 Z-0.100000 I-0.987204 J-0.049634 F400.000000
G03 X1.691448 Y71.983150 Z-0.100000 I-0.760961 J-0.722796
G01 X0.831558 Y72.089870 Z-0.100000
G01 X1.675478 Y72.132170 Z-0.100000
G03 X2.287021 Y72.419818 Z-0.100000 I-0.044612 J0.888744
G03 X2.623188 Y73.166700 Z-0.100000 I-0.963732 J0.882864
G01 X2.726978 Y74.158890 Z-0.100000
G01 X2.771478 Y73.182670 Z-0.100000
G03 X3.082446 Y72.457761 Z-0.100000 I1.119370 J0.051028
G03 X3.808148 Y72.102670 Z-0.100000 I0.847988 J0.813935
G01 X4.800328 Y71.998890 Z-0.100000
G01 X3.824908 Y71.954390 Z-0.100000
G03 X3.077255 Y71.663668 Z-0.100000 I0.057142 J-1.253686
G03 X2.742768 Y71.050010 Z-0.100000 I0.610916 J-0.730981
G01 X2.636058 Y70.190120 Z-0.100000
G01 X2.593688 Y71.033310 Z-0.100000
G00 Z5.000000

(Change tool to Cylindrical cutter)

G00 Z5.000000
G00 X132.655750 Y71.314660

G01 Z-0.100000 F100.0(Penetrate)
G02 X132.346909 Y71.825395 Z-0.100000 I1.176823 J1.060370 F400.000000
G02 X132.151720 Y72.677040 Z-0.100000 I3.183879 J1.177904
G03 X131.538319 Y73.814996 Z-0.100000 I-1.659458 J-0.160210
G03 X130.675830 Y73.866310 Z-0.100000 I-0.467272 J-0.579888
G03 X130.005980 Y72.805983 Z-0.100000 I0.768356 J-1.227150
G03 X130.393190 Y71.429670 Z-0.100000 I1.869027 J-0.216795
G01 X130.381234 Y71.345072 Z-0.100000
G01 X130.278950 Y71.347070 Z-0.100000
G02 X129.700095 Y73.194648 Z-0.100000 I1.054784 J1.344937
G02 X131.184820 Y74.291240 Z-0.100000 I1.484725 J-0.456823
G02 X131.967999 Y73.891512 Z-0.100000 I0.000000 J-0.967097
G02 X132.507220 Y72.465840 Z-0.100000 I-2.353436 J-1.704931
G03 X133.120630 Y71.327884 Z-0.100000 I1.659477 J0.160227
G03 X133.983120 Y71.276570 Z-0.100000 I0.467272 J0.579891
G03 X134.652957 Y72.336884 Z-0.100000 I-0.768361 J1.227137
G03 X134.265750 Y73.713210 Z-0.100000 I-1.869058 J0.216801
G01 X134.277707 Y73.797808 Z-0.100000
G01 X134.379990 Y73.795810 Z-0.100000
G02 X134.951307 Y72.609201 Z-0.100000 I-0.920849 J-1.174201
G02 X134.359190 Y71.289530 Z-0.100000 I-1.800015 J0.014968
G02 X133.458770 Y70.950184 Z-0.100000 I-0.881064 J0.973554
G02 X132.655780 Y71.314630 Z-0.100000 I0.016256 J1.102661
G01 X132.655750 Y71.314660 Z-0.100000
G00 Z5.000000

(Change tool to Cylindrical cutter)

G00 Z5.000000
G00 X-0.297692 Y78.127680

G01 Z-0.100000 F100.0(Penetrate)
G02 X-0.237956 Y78.721310 Z-0.100000 I2.979479 J0.000000 F400.000000
G01 X-0.176692 Y78.722990 Z-0.100000
G01 X0.103723 Y78.466395 Z-0.100000
G03 X2.570748 Y78.259970 Z-0.100000 I2.467024 J14.638734
G02 X4.975380 Y78.047990 Z-0.100000 I-0.000000 J-13.744702
G01 X5.176288 Y77.796950 Z-0.100000
G01 X5.102239 Y77.645074 Z-0.100000
G01 X5.021948 Y77.664660 Z-0.100000
G01 X4.787355 Y77.845513 Z-0.100000
G03 X2.416408 Y77.995390 Z-0.100000 I-2.370948 J-18.678355
G03 X0.102596 Y77.790445 Z-0.100000 I-0.000000 J-13.163818
G01 X-0.176692 Y77.532370 Z-0.100000
G01 X-0.237954 Y77.534050 Z-0.100000
G02 X-0.297692 Y78.127680 Z-0.100000 I2.919638 J0.593630
G01 X-0.297692 Y78.127680 Z-0.100000
G00 Z5.000000

(Change tool to Cylindrical cutter)

G00 Z5.000000
G00 X73.523538 Y79.404350

G01 Z-0.100000 F100.0(Penetrate)
G02 X71.939331 Y82.144990 Z-0.100000 I1.495384 J2.692586 F400.000000
G02 X73.609038 Y84.883700 Z-0.100000 I3.161842 J-0.049338
G02 X75.179464 Y85.274073 Z-0.100000 I1.556871 J-2.909104
G02 X76.774188 Y84.870700 Z-0.100000 I-0.014007 J-3.409412
G02 X78.460264 Y82.106185 Z-0.100000 I-1.506747 J-2.815390
G02 X76.860888 Y79.430770 Z-0.100000 I-2.958530 J-0.047141
G02 X75.115151 Y78.998785 Z-0.100000 I-1.776337 J3.435101
G02 X73.523548 Y79.404370 Z-0.100000 I-0.025524 J3.225529
G01 X73.523538 Y79.404350 Z-0.100000
G00 Z5.000000

(Change tool to Cylindrical cutter)

G00 Z5.000000
G00 X77.184198 Y80.091700

G01 Z-0.100000 F100.0(Penetrate)
G03 X77.995093 Y82.034985 Z-0.100000 I-1.957766 J1.957766 F400.000000
G03 X77.205298 Y84.120730 Z-0.100000 I-3.106083 J0.016246
G03 X76.349500 Y84.731582 Z-0.100000 I-1.783112 J-1.593214
G03 X75.203958 Y84.962750 Z-0.100000 I-1.145542 J-2.722758
G03 X74.046564 Y84.741624 Z-0.100000 I0.000000 J-3.139510
G03 X73.134078 Y84.141860 Z-0.100000 I0.993912 J-2.506161
G03 X72.534324 Y83.229380 Z-0.100000 I1.906426 J-1.906398
G03 X72.313198 Y82.071990 Z-0.100000 I2.918377 J-1.157390
G03 X72.544366 Y80.926448 Z-0.100000 I2.953925 J0.000000
G03 X73.155218 Y80.070650 Z-0.100000 I2.204066 J0.927313
G03 X75.240957 Y79.280825 Z-0.100000 I2.069493 J2.316155
G03 X77.184238 Y80.091750 Z-0.100000 I-0.014481 J2.768579
G01 X77.184198 Y80.091700 Z-0.100000
G00 Z5.000000

(Change tool to Cylindrical cutter)

G00 Z5.000000
G00 X-0.251772 Y81.272410

G01 Z-0.100000 F100.0(Penetrate)
G02 X-0.326274 Y81.648264 Z-0.100000 I1.052033 J0.403845 F400.000000
G02 X-0.289672 Y82.793770 Z-0.100000 I10.093942 J0.250810
G01 X-0.218476 Y82.811102 Z-0.100000
G02 X-0.140682 Y82.559450 Z-0.100000 I-0.421934 J-0.268283
G01 X-0.094482 Y81.170390 Z-0.100000
G01 X0.790558 Y81.170390 Z-0.100000
G03 X2.072772 Y81.648970 Z-0.100000 I-0.000000 J1.956948
G03 X2.551358 Y82.697570 Z-0.100000 I-0.909469 J1.048600
G02 X2.687702 Y83.186078 Z-0.100000 I0.943309 J-0.000000
G02 X3.139388 Y83.668930 Z-0.100000 I1.371422 J-0.830209
G02 X5.184426 Y83.509438 Z-0.100000 I0.925668 J-1.321586
G02 X5.337448 Y81.551690 Z-0.100000 I-1.025884 J-1.065040
G01 X5.240788 Y81.573698 Z-0.100000
G02 X5.265748 Y81.904720 Z-0.100000 I0.597657 J0.121388
G03 X5.426801 Y82.754981 Z-0.100000 I-2.494355 J0.912857
G03 X5.296948 Y83.227640 Z-0.100000 I-0.852042 J0.020085
G03 X3.771962 Y83.860641 Z-0.100000 I-1.208228 J-0.757337
G03 X2.816018 Y82.662410 Z-0.100000 I0.272990 J-1.198231
G02 X2.259459 Y81.462362 Z-0.100000 I-1.572047 J0.000000
G02 X0.740148 Y80.905800 Z-0.100000 I-1.519312 J1.795438
G02 X-0.017805 Y81.041399 Z-0.100000 I-0.000000 J2.186152
G01 X-0.251682 Y81.272410 Z-0.100000
G01 X-0.251772 Y81.272410 Z-0.100000
G00 Z5.000000

(Change tool to Cylindrical cutter)

G00 Z5.000000
G00 X225.383420 Y82.546220

G01 Z-0.100000 F100.0(Penetrate)
G02 X224.944304 Y83.718606 Z-0.100000 I1.068714 J1.068714 F400.000000
G02 X225.549770 Y84.965840 Z-0.100000 I1.849279 J-0.127149
G02 X227.724062 Y85.789676 Z-0.100000 I2.138621 J-2.363164
G02 X229.655120 Y84.919840 Z-0.100000 I-0.029594 J-2.644118
G02 X230.174027 Y83.552232 Z-0.100000 I-1.488407 J-1.346989
G02 X229.630020 Y82.472280 Z-0.100000 I-1.371929 J0.014093
G01 X229.515446 Y82.443389 Z-0.100000
G01 X229.497730 Y82.492780 Z-0.100000
G03 X229.966606 Y83.712643 Z-0.100000 I-1.379709 J1.230358
G03 X229.510930 Y84.821580 Z-0.100000 I-1.555702 J0.008832
G03 X229.140634 Y85.011616 Z-0.100000 I-0.480536 J-0.480563
G03 X227.579470 Y85.139080 Z-0.100000 I-1.561164 J-9.496721
G03 X225.843241 Y84.626346 Z-0.100000 I-0.000000 J-3.195989
G03 X225.330510 Y83.683870 Z-0.100000 I0.609839 J-0.942476
G03 X225.436787 Y82.907686 Z-0.100000 I2.887533 J-0.000000
G03 X225.648010 Y82.546160 Z-0.100000 I0.794513 J0.221730
G02 X225.858646 Y82.272926 Z-0.100000 I-0.950460 J-0.950515
G01 X225.833220 Y82.228660 Z-0.100000
G01 X225.716253 Y82.265790 Z-0.100000
G02 X225.383430 Y82.546160 Z-0.100000 I1.472939 J2.086236
G01 X225.383420 Y82.546220 Z-0.100000
G00 Z5.000000

(Change tool to Cylindrical cutter)

G00 Z5.000000
G00 X2.286758 Y87.070390

G01 Z-0.100000 F100.0(Penetrate)
G02 X0.222724 Y87.873622 Z-0.100000 I6.652376 J20.147903 F400.000000
G01 X0.236238 Y87.994330 Z-0.100000
G03 X0.620895 Y88.152395 Z-0.100000 I-0.219515 J1.081269
G01 X0.699258 Y88.297330 Z-0.100000
G01 X0.804538 Y88.455904 Z-0.100000
G02 X3.088725 Y89.357297 Z-0.100000 I20.957941 J-49.763902
G02 X5.413088 Y90.154723 Z-0.100000 I18.776458 J-50.943952
G01 X5.609188 Y90.106990 Z-0.100000
G01 X5.592814 Y90.022432 Z-0.100000
G02 X3.627728 Y89.262670 Z-0.100000 I-12.174601 J28.567822
G03 X1.234954 Y88.345993 Z-0.100000 I13.647607 J-39.205136
G01 X0.992598 Y88.061030 Z-0.100000
G01 X1.132342 Y87.783572 Z-0.100000
G03 X3.097468 Y87.052620 Z-0.100000 I8.909523 J20.945736
G02 X5.208413 Y86.310003 Z-0.100000 I-12.090602 J-37.740049
G01 X5.197178 Y86.246640 Z-0.100000
G02 X4.809018 Y86.297753 Z-0.100000 I-0.018660 J1.357717
G02 X2.286758 Y87.070390 Z-0.100000 I16.576857 J58.618127
G01 X2.286758 Y87.070390 Z-0.100000
G00 Z5.000000

(Change tool to Cylindrical cutter)

G00 Z5.000000
G00 X227.198040 Y87.735270

G01 Z-0.100000 F100.0(Penetrate)
G02 X225.659092 Y88.411575 Z-0.100000 I4.194068 J11.632811 F400.000000
G01 X225.676690 Y88.531330 Z-0.100000
G03 X226.042323 Y88.685172 Z-0.100000 I-0.181575 J0.942964
G01 X226.124250 Y88.841680 Z-0.100000
G01 X226.218346 Y88.988795 Z-0.100000
G02 X226.984150 Y89.238890 Z-0.100000 I1.446213 J-3.130861
G03 X227.828069 Y89.461445 Z-0.100000 I-1.455333 J7.229887
G03 X228.715870 Y89.807150 Z-0.100000 I-2.737525 J8.343037
G02 X229.592038 Y90.107363 Z-0.100000 I2.004928 J-4.422704
G02 X229.906490 Y90.091700 Z-0.100000 I0.130431 J-0.545746
G01 X229.914751 Y89.998625 Z-0.100000
G02 X229.365400 Y89.788020 Z-0.100000 I-0.994504 J1.772329
G03 X228.763824 Y89.388241 Z-0.100000 I0.221166 J-0.985311
G03 X228.505500 Y88.579750 Z-0.100000 I1.136026 J-0.808491
G03 X228.731885 Y87.722812 Z-0.100000 I1.735081 J-0.000000
G03 X229.233110 Y87.298740 Z-0.100000 I0.827845 J0.470216
G02 X229.587647 Y87.097158 Z-0.100000 I-0.421339 J-1.153609
G01 X229.563830 Y87.029210 Z-0.100000
G02 X229.176881 Y87.083899 Z-0.100000 I-0.012014 J1.311254
G02 X227.198040 Y87.735270 Z-0.100000 I10.628186 J35.619548
G01 X227.198040 Y87.735270 Z-0.100000
G00 Z5.000000

(Change tool to Cylindrical cutter)

G00 Z5.000000
G00 X228.240920 Y88.446430

G01 Z-0.100000 F100.0(Penetrate)
G03 X227.811037 Y88.976048 Z-0.100000 I-0.541187 J-0.000000 F400.000000
G03 X226.569880 Y88.797620 Z-0.100000 I-0.376119 J-1.789692
G01 X226.454621 Y88.507909 Z-0.100000
G03 X226.785710 Y88.148100 Z-0.100000 I0.565136 J0.187792
G03 X227.905132 Y88.034818 Z-0.100000 I0.740849 J1.733322
G01 X228.240920 Y88.446430 Z-0.100000
G01 X228.240920 Y88.446430 Z-0.100000
G00 Z5.000000

(Change tool to Cylindrical cutter)

G00 Z5.000000
G00 X17.963328 Y99.049150

G01 Z-0.100000 F100.0(Penetrate)
G03 X19.157021 Y100.396052 Z-0.100000 I-18.609728 J17.695293 F400.000000
G01 X19.220098 Y100.571540 Z-0.100000
G01 X19.159868 Y100.749385 Z-0.100000
G03 X18.095618 Y102.041310 Z-0.100000 I-18.475899 J-14.135595
G02 X17.376068 Y102.862169 Z-0.100000 I76.720974 J67.978062
G01 X17.382269 Y102.869740 Z-0.100000
G01 X17.429234 Y102.833782 Z-0.100000
G02 X18.348718 Y101.897690 Z-0.100000 I-128.110570 J-126.757230
G03 X19.791164 Y100.638820 Z-0.100000 I8.528429 J8.316264
G03 X20.257688 Y100.484970 Z-0.100000 I0.466524 J0.630403
G01 X20.557545 Y100.724102 Z-0.100000
G03 X20.876638 Y103.196950 Z-0.100000 I-12.673025 J2.892321
G02 X20.926440 Y104.229776 Z-0.100000 I32.531223 J-1.051005
G01 X20.942838 Y104.229838 Z-0.100000
G02 X20.955779 Y103.914344 Z-0.100000 I-5.157034 J-0.369552
G02 X20.966738 Y101.940180 Z-0.100000 I-201.234566 J-2.104162
G02 X20.895515 Y99.033005 Z-0.100000 I-58.278495 J-0.026699
G01 X20.822288 Y99.029760 Z-0.100000
G03 X19.998172 Y99.737138 Z-0.100000 I-0.812534 J-0.112877
G03 X18.102898 Y98.991360 Z-0.100000 I0.040733 J-2.884670
G01 X16.706518 Y97.727450 Z-0.100000
G01 X17.963328 Y99.049150 Z-0.100000
G00 Z5.000000

(Change tool to Cylindrical cutter)

G00 Z5.000000
G00 X25.660288 Y98.081400

G01 Z-0.100000 F100.0(Penetrate)
G03 X27.624486 Y98.446686 Z-0.100000 I-0.679531 J9.117480 F400.000000
G03 X28.239978 Y98.860640 Z-0.100000 I-0.364400 J1.206363
G03 X28.846006 Y100.600704 Z-0.100000 I-2.118994 J1.713567
G03 X28.205378 Y102.422730 Z-0.100000 I-2.994152 J-0.029114
G03 X27.544591 Y102.873122 Z-0.100000 I-1.043204 J-0.820594
G03 X25.625688 Y103.198910 Z-0.100000 I-2.265403 J-7.529210
G01 X23.585768 Y103.288910 Z-0.100000
G01 X25.612768 Y103.342110 Z-0.100000
G02 X27.509862 Y103.106387 Z-0.100000 I0.168209 J-6.397996
G02 X28.324748 Y102.581310 Z-0.100000 I-0.444682 J-1.584983
G02 X29.051041 Y100.519037 Z-0.100000 I-2.368943 J-1.993326
G02 X28.236348 Y98.612510 Z-0.100000 I-2.783236 J0.061997
G02 X27.356701 Y98.104055 Z-0.100000 I-1.390502 J1.390483
G02 X25.524368 Y97.882930 Z-0.100000 I-1.685684 J6.265990
G01 X23.585788 Y97.926730 Z-0.100000
G01 X25.660288 Y98.081400 Z-0.100000
G00 Z5.000000

(Change tool to Cylindrical cutter)

G00 Z5.000000
G00 X48.125818 Y98.135200

G01 Z-0.100000 F100.0(Penetrate)
G01 X47.265928 Y98.383480 Z-0.100000 F400.000000
G01 X47.315928 Y100.823320 Z-0.100000
G01 X47.365928 Y103.263150 Z-0.100000
G01 X47.514368 Y100.892850 Z-0.100000
G03 X47.918737 Y98.730231 Z-0.100000 I8.999126 J0.563554
G03 X48.324258 Y98.339530 Z-0.100000 I0.563034 J0.178589
G03 X49.622238 Y98.244938 Z-0.100000 I0.885735 J3.201279
G03 X50.477768 Y98.608890 Z-0.100000 I-0.210392 J1.682071
G03 X50.891717 Y99.224378 Z-0.100000 I-0.792429 J0.979898
G03 X51.257008 Y101.188580 Z-0.100000 I-8.752045 J2.643722
G01 X51.411618 Y103.263150 Z-0.100000
G01 X51.455418 Y101.324570 Z-0.100000
G02 X51.234161 Y99.492135 Z-0.100000 I-6.484113 J-0.146651
G02 X50.725848 Y98.612590 Z-0.100000 I-1.900071 J0.511446
G02 X49.670165 Y98.058297 Z-0.100000 I-1.417768 J1.417768
G02 X48.125808 Y98.135200 Z-0.100000 I-0.608942 J3.316541
G01 X48.125818 Y98.135200 Z-0.100000
G00 Z5.000000

(Change tool to Cylindrical cutter)

G00 Z5.000000
G00 X56.756528 Y98.085200

G01 Z-0.100000 F100.0(Penetrate)
G03 X58.626114 Y98.860930 Z-0.100000 I-0.449600 J3.724391 F400.000000
G03 X59.172178 Y99.985150 Z-0.100000 I-0.884224 J1.124220
G01 X58.956435 Y100.269255 Z-0.100000
G03 X57.378968 Y100.485000 Z-0.100000 I-1.577467 J-5.659137
G02 X54.961254 Y101.036575 Z-0.100000 I-0.000000 J5.574561
G02 X54.409678 Y101.914210 Z-0.100000 I0.422432 J0.877635
G02 X54.933422 Y102.871672 Z-0.100000 I1.137044 J0.000000
G02 X56.722098 Y103.395420 Z-0.100000 I1.788676 J-2.792417
G02 X57.955928 Y103.157215 Z-0.100000 I0.000000 J-3.314536
G02 X58.751778 Y102.581370 Z-0.100000 I-0.753987 J-1.879928
G02 X59.478074 Y100.519095 Z-0.100000 I-2.368910 J-1.993319
G02 X58.663378 Y98.612570 Z-0.100000 I-2.783246 J0.062006
G02 X57.800160 Y98.065294 Z-0.100000 I-1.653195 J1.653170
G02 X56.612858 Y97.876420 Z-0.100000 I-1.092980 J3.044446
G01 X55.335738 Y97.913720 Z-0.100000
G01 X56.756528 Y98.085200 Z-0.100000
G00 Z5.000000

(Change tool to Cylindrical cutter)

G00 Z5.000000
G00 X59.172178 Y101.243070

G01 Z-0.100000 F100.0(Penetrate)
G03 X59.071625 Y101.701752 Z-0.100000 I-1.096434 J0.000000 F400.000000
G03 X58.623808 Y102.433700 Z-0.100000 I-3.325692 J-1.531743
G03 X57.967117 Y102.907822 Z-0.100000 I-1.156052 J-0.909369
G03 X56.692348 Y103.130840 Z-0.100000 I-1.274769 J-3.531774
G03 X55.116708 Y102.688393 Z-0.100000 I0.000000 J-3.026805
G03 X54.674258 Y101.900440 Z-0.100000 I0.480402 J-0.787953
G03 X55.126121 Y101.219683 Z-0.100000 I0.738731 J0.000000
G03 X57.386238 Y100.757630 Z-0.100000 I2.286635 J5.426332
